Mingrui-Yu/DLO_following/data/cable_sensing/1/data.csv
idx,tactile_timestamp,arm_joint_pos,hand_curr_joint_pos,hand_target_joint_pos
0,1708577549.9349349,"[ 1.43022144e-04 -1.44381688e-03 -5.26301300e-04 -9.09380691e-04
 -1.57001741e+00 -2.48217346e-03]","[ 1.80702937e+00  2.30097119e-02 -4.90873866e-02 -1.44194201e-01
  2.91456357e-02  0.00000000e+00  6.13592332e-03  1.53398083e-03
  3.68155390e-02  0.00000000e+00  6.13592332e-03  0.00000000e+00
  1.57386434e+00 -9.20388475e-03  4.34116572e-01 -3.39009762e-01]","[ 1.79167928  0.02940236 -0.06640229 -0.15756371  0.          0.
  0.          0.          0.          0.          0.          0.
  1.56947926 -0.0105026   0.41233339 -0.35814456]"
1,1708577550.0322237,"[ 1.43022144e-04 -1.44797106e-03 -5.26916883e-04 -9.10240889e-04
 -1.57001816e+00 -2.48218854e-03]","[ 1.80702937e+00  2.30097119e-02 -4.75534052e-02 -1.44194201e-01
  2.91456357e-02  0.00000000e+00  6.13592332e-03  1.53398083e-03
  3.68155390e-02  0.00000000e+00  6.13592332e-03  0.00000000e+00
  1.57233036e+00 -9.20388475e-03  4.34116572e-01 -3.39009762e-01]","[ 1.79167928  0.02940236 -0.06640229 -0.15756371  0.          0.
  0.          0.          0.          0.          0.          0.
  1.56947926 -0.0105026   0.41233339 -0.35814456]"
2,1708577550.152425,"[ 1.43022144e-04 -1.45108668e-03 -5.25685718e-04 -9.11101086e-04
 -1.57001816e+00 -2.48218854e-03]","[ 1.80702937e+00  2.14757305e-02 -4.90873866e-02 -1.44194201e-01
  2.91456357e-02  0.00000000e+00  6.13592332e-03  1.53398083e-03
  3.68155390e-02  0.00000000e+00  6.13592332e-03  0.00000000e+00
  1.57233036e+00 -9.20388475e-03  4.34116572e-01 -3.39009762e-01]","[ 1.79167928  0.02940236 -0.06640229 -0.15756371  0.          0.
  0.          0.          0.          0.          0.          0.
  1.56947926 -0.0105026   0.41233339 -0.35814456]"
3,1708577550.2984133,"[ 1.43022144e-04 -1.45420231e-03 -5.25685718e-04 -9.12821482e-04
 -1.57001816e+00 -2.48218854e-03]","[ 1.80702937e+00  2.14757305e-02 -4.75534052e-02 -1.44194201e-01
  2.91456357e-02  0.00000000e+00  6.13592332e-03  1.53398083e-03
  3.68155390e-02  0.00000000e+00  6.13592332e-03  0.00000000e+00
  1.57233036e+00 -9.20388475e-03  4.34116572e-01 -3.39009762e-01]","[ 1.79167928  0.02940236 -0.06640229 -0.15756371  0.          0.
  0.          0.          0.          0.          0.          0.
  1.56947926 -0.0105026   0.41233339 -0.35814456]"
4,1708577550.4468358,"[ 1.43570441e-04 -1.45679867e-03 -5.25685718e-04 -9.13681680e-04
 -1.57001741e+00 -2.48217346e-03]","[ 1.80702937e+00  2.14757305e-02 -4.75534052e-02 -1.44194201e-01
  2.91456357e-02  0.00000000e+00  6.13592332e-03  1.53398083e-03
  3.68155390e-02  0.00000000e+00  6.13592332e-03  0.00000000e+00
  1.57233036e+00 -9.20388475e-03  4.34116572e-01 -3.39009762e-01]","[ 1.79167928  0.02940236 -0.06640229 -0.15756371  0.          0.
  0.          0.          0.          0.          0.          0.
  1.56947926 -0.0105026   0.41233339 -0.35814456]"
5,1708577550.57003,"[ 1.43570441e-04 -1.45939503e-03 -5.25070136e-04 -9.14541878e-04
 -1.57001741e+00 -2.48217346e-03]","[ 1.80702937e+00  1.99417509e-02 -4.75534052e-02 -1.44194201e-01
  2.91456357e-02  0.00000000e+00  6.13592332e-03  1.53398083e-03
  3.68155390e-02  0.00000000e+00  6.13592332e-03  0.00000000e+00
  1.57233036e+00 -9.20388475e-03  4.34116572e-01 -3.39009762e-01]","[ 1.79167928  0.02940236 -0.06640229 -0.15756371  0.          0.
  0.          0.          0.          0.          0.          0.
  1.56947926 -0.0105026   0.41233339 -0.35814456]"
6,1708577550.718917,"[ 1.43022144e-04 -1.46251066e-03 -5.25070136e-04 -9.15402076e-04
 -1.57001741e+00 -2.48217346e-03]","[ 1.80702937e+00  1.99417509e-02 -4.75534052e-02 -1.44194201e-01
  2.91456357e-02  0.00000000e+00  6.13592332e-03  1.53398083e-03
  3.68155390e-02  0.00000000e+00  6.13592332e-03  0.00000000e+00
  1.57233036e+00 -9.20388475e-03  4.34116572e-01 -3.39009762e-01]","[ 1.79167928  0.02940236 -0.06640229 -0.15756371  0.          0.
  0.          0.          0.          0.          0.          0.
  1.56947926 -0.0105026   0.41233339 -0.35814456]"
7,1708577550.8682363,"[ 1.43022144e-04 -1.46458774e-03 -5.25070136e-04 -9.16262274e-04
 -1.57001741e+00 -2.48217346e-03]","[ 1.80702937e+00  1.99417509e-02 -4.75534052e-02 -1.44194201e-01
  2.91456357e-02  0.00000000e+00  6.13592332e-03  1.53398083e-03
  3.68155390e-02  0.00000000e+00  6.13592332e-03  0.00000000e+00
  1.57233036e+00 -9.20388475e-03  4.34116572e-01 -3.39009762e-01]","[ 1.79167928  0.02940236 -0.06640229 -0.15756371  0.          0.
  0.          0.          0.          0.          0.          0.
  1.56947926 -0.0105026   0.41233339 -0.35814456]"
8,1708577550.9818647,"[ 1.43570441e-04 -1.46770337e-03 -5.25070136e-04 -9.16262274e-04
 -1.57001741e+00 -2.48217346e-03]","[ 1.80702937e+00  2.14757305e-02 -4.75534052e-02 -1.44194201e-01
  2.91456357e-02  0.00000000e+00  6.13592332e-03  1.53398083e-03
  3.68155390e-02  0.00000000e+00  6.13592332e-03  0.00000000e+00
  1.57233036e+00 -9.20388475e-03  4.34116572e-01 -3.39009762e-01]","[ 1.79167928  0.02940236 -0.06640229 -0.15756371  0.          0.
  0.          0.          0.          0.          0.          0.
  1.56947926 -0.0105026   0.41233339 -0.35814456]"
9,1708577551.13713,"[ 1.43570441e-04 -1.47081900e-03 -5.25070136e-04 -9.17982670e-04
 -1.57001741e+00 -2.48217346e-03]","[ 1.80702937e+00  2.14757305e-02 -4.75534052e-02 -1.44194201e-01
  2.91456357e-02  0.00000000e+00  6.13592332e-03  1.53398083e-03
  3.68155390e-02  0.00000000e+00  6.13592332e-03  0.00000000e+00
  1.57233036e+00 -9.20388475e-03  4.34116572e-01 -3.39009762e-01]","[ 1.79167928  0.02940236 -0.06640229 -0.15756371  0.          0.
  0.          0.          0.          0.          0.          0.
  1.56947926 -0.0105026   0.41233339 -0.35814456]"
10,1708577551.2816114,"[ 1.43570441e-04 -1.47341536e-03 -5.25070136e-04 -9.17982670e-04
 -1.57001741e+00 -2.48217346e-03]","[ 1.80702937e+00  2.14757305e-02 -4.75534052e-02 -1.44194201e-01
  2.91456357e-02  0.00000000e+00  6.13592332e-03  1.53398083e-03
  3.68155390e-02  0.00000000e+00  6.13592332e-03  0.00000000e+00
  1.57233036e+00 -9.20388475e-03  4.34116572e-01 -3.39009762e-01]","[ 1.79167928  0.02940236 -0.06640229 -0.15756371  0.          0.
  0.          0.          0.          0.          0.          0.
  1.56947926 -0.0105026   0.41233339 -0.35814456]"
11,1708577551.4117277,"[ 1.43570441e-04 -1.47601172e-03 -5.25070136e-04 -9.18842868e-04
 -1.57001741e+00 -2.48217346e-03]","[ 1.80702937e+00  2.14757305e-02 -4.75534052e-02 -1.44194201e-01
  2.91456357e-02  0.00000000e+00  6.13592332e-03  1.53398083e-03
  3.68155390e-02  0.00000000e+00  6.13592332e-03  0.00000000e+00
  1.57233036e+00 -9.20388475e-03  4.34116572e-01 -3.39009762e-01]","[ 1.79167928  0.02940236 -0.06640229 -0.15756371  0.          0.
  0.          0.          0.          0.          0.          0.
  1.56947926 -0.0105026   0.41233339 -0.35814456]"
12,1708577551.5217118,"[ 1.43570441e-04 -1.47912735e-03 -5.25070136e-04 -9.19703066e-04
 -1.57001741e+00 -2.48217346e-03]","[ 1.80856335e+00  2.14757305e-02 -4.75534052e-02 -1.44194201e-01
  2.91456357e-02  0.00000000e+00  6.13592332e-03  1.53398083e-03
  3.68155390e-02  0.00000000e+00  6.13592332e-03  0.00000000e+00
  1.57233036e+00 -9.20388475e-03  4.32582587e-01 -3.39009762e-01]","[ 1.79167928  0.02940236 -0.06640229 -0.15756371  0.          0.
  0.          0.          0.          0.          0.          0.
  1.56947926 -0.0105026   0.41233339 -0.35814456]"
13,1708577551.6604974,"[ 1.43570441e-04 -1.48328152e-03 -5.25685718e-04 -9.20563264e-04
 -1.57001741e+00 -2.48217346e-03]","[ 1.80856335e+00  2.14757305e-02 -4.75534052e-02 -1.44194201e-01
  2.91456357e-02  0.00000000e+00  6.13592332e-03  1.53398083e-03
  3.68155390e-02  0.00000000e+00  7.66990380e-03  0.00000000e+00
  1.57233036e+00 -9.20388475e-03  4.34116572e-01 -3.39009762e-01]","[ 1.79167928  0.02940236 -0.06640229 -0.15756371  0.          0.
  0.          0.          0.          0.          0.          0.
  1.56947926 -0.0105026   0.41233339 -0.35814456]"
14,1708577551.789446,"[ 1.44118738e-04 -1.48535860e-03 -5.25070136e-04 -9.21423462e-04
 -1.57001741e+00 -2.48217346e-03]","[ 1.80856335e+00  2.14757305e-02 -4.75534052e-02 -1.44194201e-01
  2.91456357e-02  0.00000000e+00  6.13592332e-03  1.53398083e-03
  3.68155390e-02  0.00000000e+00  6.13592332e-03  0.00000000e+00
  1.57233036e+00 -9.20388475e-03  4.32582587e-01 -3.39009762e-01]","[ 1.79167928  0.02940236 -0.06640229 -0.15756371  0.          0.
  0.          0.          0.          0.          0.          0.
  1.56947926 -0.0105026   0.41233339 -0.35814456]"
15,1708577551.9101415,"[ 1.43570441e-04 -1.48951278e-03 -5.25070136e-04 -9.22283660e-04
 -1.57001741e+00 -2.48217346e-03]","[ 1.80856335e+00  2.14757305e-02 -4.75534052e-02 -1.44194201e-01
  2.91456357e-02  0.00000000e+00  6.13592332e-03  1.53398083e-03
  3.68155390e-02  0.00000000e+00  6.13592332e-03  0.00000000e+00
  1.57233036e+00 -9.20388475e-03  4.32582587e-01 -3.39009762e-01]","[ 1.79167928  0.02940236 -0.06640229 -0.15756371  0.          0.
  0.          0.          0.          0.          0.          0.
  1.56947926 -0.0105026   0.41233339 -0.35814456]"
16,1708577552.139036,"[ 1.43570441e-04 -1.49366695e-03 -5.25070136e-04 -9.23143858e-04
 -1.57001741e+00 -2.48217346e-03]","[ 1.80856335e+00  2.14757305e-02 -4.75534052e-02 -1.44194201e-01
  2.91456357e-02  0.00000000e+00  6.13592332e-03  1.53398083e-03
  3.68155390e-02  0.00000000e+00  6.13592332e-03  0.00000000e+00
  1.57233036e+00 -9.20388475e-03  4.32582587e-01 -3.39009762e-01]","[ 1.79167928  0.02940236 -0.06640229 -0.15756371  0.          0.
  0.          0.          0.          0.          0.          0.
  1.56947926 -0.0105026   0.41233339 -0.35814456]"
17,1708577552.2779858,"[ 1.43570441e-04 -1.49626331e-03 -5.25070136e-04 -9.24004056e-04
 -1.57001741e+00 -2.48217346e-03]","[ 1.80856335e+00  2.14757305e-02 -4.75534052e-02 -1.44194201e-01
  2.91456357e-02  0.00000000e+00  6.13592332e-03  1.53398083e-03
  3.68155390e-02  0.00000000e+00  6.13592332e-03  0.00000000e+00
  1.57233036e+00 -9.20388475e-03  4.34116572e-01 -3.39009762e-01]","[ 1.79167928  0.02940236 -0.06640229 -0.15756371  0.          0.
  0.          0.          0.          0.          0.          0.
  1.56947926 -0.0105026   0.41233339 -0.35814456]"
18,1708577552.3947878,"[ 1.43570441e-04 -1.49885966e-03 -5.25070136e-04 -9.24864254e-04
 -1.57001741e+00 -2.48217346e-03]","[ 1.80856335e+00  2.14757305e-02 -4.75534052e-02 -1.44194201e-01
  2.91456357e-02  0.00000000e+00  6.13592332e-03  1.53398083e-03
  3.68155390e-02  0.00000000e+00  6.13592332e-03  0.00000000e+00
  1.57233036e+00 -9.20388475e-03  4.32582587e-01 -3.39009762e-01]","[ 1.79167928  0.02940236 -0.06640229 -0.15756371  0.          0.
  0.          0.          0.          0.          0.          0.
  1.56947926 -0.0105026   0.41233339 -0.35814456]"
19,1708577552.5512705,"[ 1.43570441e-04 -1.50093675e-03 -5.25070136e-04 -9.25724452e-04
 -1.57001741e+00 -2.48217346e-03]","[ 1.80856335e+00  2.14757305e-02 -4.75534052e-02 -1.44194201e-01
  2.91456357e-02  0.00000000e+00  6.13592332e-03  1.53398083e-03
  3.68155390e-02  0.00000000e+00  6.13592332e-03  0.00000000e+00
  1.57233036e+00 -9.20388475e-03  4.32582587e-01 -3.39009762e-01]","[ 1.79167928  0.02940236 -0.06640229 -0.15756371  0.          0.
  0.          0.          0.          0.          0.          0.
  1.56947926 -0.0105026   0.41233339 -0.35814456]"
20,1708577552.6890397,"[ 1.43570441e-04 -1.50457165e-03 -5.25070136e-04 -9.26584650e-04
 -1.57001741e+00 -2.48217346e-03]","[ 1.80856335e+00  2.30097119e-02 -4.75534052e-02 -1.44194201e-01
  2.91456357e-02  0.00000000e+00  6.13592332e-03  1.53398083e-03
  3.68155390e-02  0.00000000e+00  6.13592332e-03  0.00000000e+00
  1.57386434e+00 -9.20388475e-03  4.34116572e-01 -3.39009762e-01]","[ 1.79167928  0.02940236 -0.06640229 -0.15756371  0.          0.
  0.          0.          0.          0.          0.          0.
  1.56947926 -0.0105026   0.41233339 -0.35814456]"
21,1708577552.9405937,"[ 1.43570441e-04 -1.50768728e-03 -5.24454553e-04 -9.27444848e-04
 -1.57001741e+00 -2.48217346e-03]","[ 1.80856335e+00  2.60776728e-02 -4.75534052e-02 -1.44194201e-01
  2.91456357e-02  0.00000000e+00  6.13592332e-03  1.53398083e-03
  3.68155390e-02  0.00000000e+00  6.13592332e-03  0.00000000e+00
  1.57386434e+00 -9.20388475e-03  4.32582587e-01 -3.39009762e-01]","[ 1.79167928  0.02940236 -0.06640229 -0.15756371  0.          0.
  0.          0.          0.          0.          0.          0.
  1.56947926 -0.0105026   0.41233339 -0.35814456]"
22,1708577553.0640302,"[ 1.44118738e-04 -1.50976437e-03 -5.24454553e-04 -9.28305046e-04
 -1.57001741e+00 -2.48217346e-03]","[ 1.80856335e+00  2.60776728e-02 -4.75534052e-02 -1.44194201e-01
  2.91456357e-02  0.00000000e+00  6.13592332e-03  1.53398083e-03
  3.68155390e-02  0.00000000e+00  6.13592332e-03  0.00000000e+00
  1.57386434e+00 -9.20388475e-03  4.32582587e-01 -3.39009762e-01]","[ 1.79167928  0.02940236 -0.06640229 -0.15756371  0.          0.
  0.          0.          0.          0.          0.          0.
  1.56947926 -0.0105026   0.41233339 -0.35814456]"
23,1708577553.1757665,"[ 1.44118738e-04 -1.51132218e-03 -5.25070136e-04 -9.28305046e-04
 -1.57001741e+00 -2.48369189e-03]","[ 1.80856335e+00  2.60776728e-02 -4.75534052e-02 -1.44194201e-01
  2.91456357e-02  0.00000000e+00  6.13592332e-03  1.53398083e-03
  3.68155390e-02  0.00000000e+00  6.13592332e-03  0.00000000e+00
  1.57386434e+00 -9.20388475e-03  4.32582587e-01 -3.39009762e-01]","[ 1.79167928  0.02940236 -0.06640229 -0.15756371  0.          0.
  0.          0.          0.          0.          0.          0.
  1.56947926 -0.0105026   0.41233339 -0.35814456]"
24,1708577553.279115,"[ 1.44118738e-04 -1.51391854e-03 -5.25070136e-04 -9.30025442e-04
 -1.57001741e+00 -2.48369189e-03]","[ 1.80856335e+00  2.60776728e-02 -4.75534052e-02 -1.44194201e-01
  2.91456357e-02  0.00000000e+00  6.13592332e-03  1.53398083e-03
  3.68155390e-02  0.00000000e+00  6.13592332e-03  0.00000000e+00
  1.57386434e+00 -9.20388475e-03  4.34116572e-01 -3.39009762e-01]","[ 1.79167928  0.02940236 -0.06640229 -0.15756371  0.          0.
  0.          0.          0.          0.          0.          0.
  1.56947926 -0.0105026   0.41233339 -0.35814456]"
25,1708577553.4269574,"[ 1.44118738e-04 -1.51703417e-03 -5.24454553e-04 -9.30885640e-04
 -1.57001741e+00 -2.48217346e-03]","[ 1.80856335e+00  2.60776728e-02 -4.75534052e-02 -1.44194201e-01
  2.91456357e-02  0.00000000e+00  6.13592332e-03  1.53398083e-03
  3.68155390e-02  0.00000000e+00  6.13592332e-03  0.00000000e+00
  1.57386434e+00 -9.20388475e-03  4.34116572e-01 -3.39009762e-01]","[ 1.79167928  0.02940236 -0.06640229 -0.15756371  0.          0.
  0.          0.          0.          0.          0.          0.
  1.56947926 -0.0105026   0.41233339 -0.35814456]"
26,1708577553.574798,"[ 1.44118738e-04 -1.52066907e-03 -5.24454553e-04 -9.31745838e-04
 -1.57001741e+00 -2.48369189e-03]","[ 1.80856335e+00  2.60776728e-02 -4.75534052e-02 -1.44194201e-01
  2.91456357e-02  0.00000000e+00  6.13592332e-03  1.53398083e-03
  3.68155390e-02  0.00000000e+00  7.66990380e-03  0.00000000e+00
  1.57386434e+00 -9.20388475e-03  4.34116572e-01 -3.39009762e-01]","[ 1.79167928  0.02940236 -0.06640229 -0.15756371  0.          0.
  0.          0.          0.          0.          0.          0.
  1.56947926 -0.0105026   0.41233339 -0.35814456]"
27,1708577553.7186265,"[ 1.44118738e-04 -1.52378470e-03 -5.23838971e-04 -9.32606036e-04
 -1.57001741e+00 -2.48369189e-03]","[ 1.80856335e+00  2.60776728e-02 -4.75534052e-02 -1.44194201e-01
  2.91456357e-02  0.00000000e+00  6.13592332e-03  1.53398083e-03
  3.68155390e-02  0.00000000e+00  6.13592332e-03  0.00000000e+00
  1.57539833e+00 -9.20388475e-03  4.34116572e-01 -3.39009762e-01]","[ 1.79167928  0.02940236 -0.06640229 -0.15756371  0.          0.
  0.          0.          0.          0.          0.          0.
  1.56947926 -0.0105026   0.41233339 -0.35814456]"
28,1708577553.8612688,"[ 1.44118738e-04 -1.52586178e-03 -5.23838971e-04 -9.32606036e-04
 -1.57001741e+00 -2.48369189e-03]","[ 1.80702937e+00  2.60776728e-02 -4.75534052e-02 -1.44194201e-01
  2.91456357e-02  0.00000000e+00  6.13592332e-03  1.53398083e-03
  3.68155390e-02  0.00000000e+00  6.13592332e-03  0.00000000e+00
  1.57539833e+00 -9.20388475e-03  4.34116572e-01 -3.39009762e-01]","[ 1.79167928  0.02940236 -0.06640229 -0.15756371  0.          0.
  0.          0.          0.          0.          0.          0.
  1.56947926 -0.0105026   0.41233339 -0.35814456]"
29,1708577553.9709527,"[ 1.44667035e-04 -1.52897741e-03 -5.23838971e-04 -9.34326432e-04
 -1.57001666e+00 -2.48367681e-03]","[ 1.80856335e+00  2.60776728e-02 -4.75534052e-02 -1.44194201e-01
  2.91456357e-02  0.00000000e+00  6.13592332e-03  1.53398083e-03
  3.68155390e-02  0.00000000e+00  6.13592332e-03  0.00000000e+00
  1.57386434e+00 -9.20388475e-03  4.34116572e-01 -3.39009762e-01]","[ 1.79167928  0.02940236 -0.06640229 -0.15756371  0.          0.
  0.          0.          0.          0.          0.          0.
  1.56947926 -0.0105026   0.41233339 -0.35814456]"
30,1708577554.0860844,"[ 1.44118738e-04 -1.53209304e-03 -5.23838971e-04 -9.34326432e-04
 -1.57001666e+00 -2.48215838e-03]","[ 1.80856335e+00  2.60776728e-02 -4.75534052e-02 -1.44194201e-01
  2.91456357e-02  0.00000000e+00  6.13592332e-03  1.53398083e-03
  3.68155390e-02  0.00000000e+00  6.13592332e-03  0.00000000e+00
  1.57539833e+00 -9.20388475e-03  4.34116572e-01 -3.39009762e-01]","[ 1.79167928  0.02940236 -0.06640229 -0.15756371  0.          0.
  0.          0.          0.          0.          0.          0.
  1.56947926 -0.0105026   0.41233339 -0.35814456]"
31,1708577554.191707,"[ 1.44667035e-04 -1.53520867e-03 -5.23223389e-04 -9.36046828e-04
 -1.57001741e+00 -2.48217346e-03]","[ 1.80856335e+00  2.60776728e-02 -4.75534052e-02 -1.44194201e-01
  2.91456357e-02  0.00000000e+00  6.13592332e-03  1.53398083e-03
  3.68155390e-02  0.00000000e+00  6.13592332e-03  0.00000000e+00
  1.57539833e+00 -9.20388475e-03  4.34116572e-01 -3.39009762e-01]","[ 1.79167928  0.02940236 -0.06640229 -0.15756371  0.          0.
  0.          0.          0.          0.          0.          0.
  1.56947926 -0.0105026   0.41233339 -0.35814456]"
32,1708577554.3230484,"[ 1.44118738e-04 -1.53884357e-03 -5.22607806e-04 -9.36046828e-04
 -1.57001741e+00 -2.48369189e-03]","[ 1.80702937e+00  2.60776728e-02 -4.75534052e-02 -1.44194201e-01
  2.91456357e-02  0.00000000e+00  6.13592332e-03  1.53398083e-03
  3.68155390e-02  0.00000000e+00  6.13592332e-03  0.00000000e+00
  1.57386434e+00 -9.20388475e-03  4.34116572e-01 -3.39009762e-01]","[ 1.79167928  0.02940236 -0.06640229 -0.15756371  0.          0.
  0.          0.          0.          0.          0.          0.
  1.56947926 -0.0105026   0.41233339 -0.35814456]"
33,1708577554.4566922,"[ 1.44118738e-04 -1.54247847e-03 -5.21992224e-04 -9.36907026e-04
 -1.57001666e+00 -2.48367681e-03]","[ 1.80702937e+00  3.22135948e-02 -4.75534052e-02 -1.44194201e-01
  2.91456357e-02  0.00000000e+00  6.13592332e-03  1.53398083e-03
  3.68155390e-02  0.00000000e+00  6.13592332e-03  0.00000000e+00
  1.57539833e+00 -9.20388475e-03  4.34116572e-01 -3.39009762e-01]","[ 1.79167928  0.02940236 -0.06640229 -0.15756371  0.          0.
  0.          0.          0.          0.          0.          0.
  1.56947926 -0.0105026   0.41233339 -0.35814456]"
34,1708577554.6030462,"[ 1.44667035e-04 -1.54559410e-03 -5.21376642e-04 -9.37767224e-04
 -1.57001666e+00 -2.48367681e-03]","[ 1.80702937e+00  3.68155390e-02 -4.90873866e-02 -1.44194201e-01
  2.91456357e-02  0.00000000e+00  6.13592332e-03  1.53398083e-03
  3.68155390e-02  0.00000000e+00  6.13592332e-03  0.00000000e+00
  1.58000016e+00 -6.13592332e-03  4.34116572e-01 -3.39009762e-01]","[ 1.79167928  0.02940236 -0.06640229 -0.15756371  0.          0.
  0.          0.          0.          0.          0.          0.
  1.56947926 -0.0105026   0.41233339 -0.35814456]"
35,1708577554.715659,"[ 1.45215331e-04 -1.54870973e-03 -5.21376642e-04 -9.41208016e-04
 -1.57001590e+00 -2.48366173e-03]","[ 1.80856335e+00  2.45436933e-02 -4.90873866e-02 -1.44194201e-01
  2.91456357e-02  0.00000000e+00  6.13592332e-03  1.53398083e-03
  3.68155390e-02  0.00000000e+00  6.13592332e-03  0.00000000e+00
  1.57386434e+00 -6.13592332e-03  4.34116572e-01 -3.39009762e-01]","[ 1.79167928  0.02940236 -0.06640229 -0.15756371  0.          0.
  0.          0.          0.          0.          0.          0.
  1.56947926 -0.0105026   0.41233339 -0.35814456]"
36,1708577554.8662171,"[ 1.44667035e-04 -1.55078682e-03 -5.21376642e-04 -9.42068214e-04
 -1.57001666e+00 -2.48367681e-03]","[ 1.80702937e+00  1.84077695e-02 -4.75534052e-02 -1.44194201e-01
  2.91456357e-02  0.00000000e+00  6.13592332e-03  1.53398083e-03
  3.68155390e-02  0.00000000e+00  6.13592332e-03  0.00000000e+00
  1.56926239e+00 -6.13592332e-03  4.34116572e-01 -3.39009762e-01]","[ 1.79167928  0.02940236 -0.06640229 -0.15756371  0.          0.
  0.          0.          0.          0.          0.          0.
  1.56947926 -0.0105026   0.41233339 -0.35814456]"
37,1708577554.9642267,"[ 1.45215331e-04 -1.55390244e-03 -5.21376642e-04 -9.43788610e-04
 -1.57001666e+00 -2.48367681e-03]","[ 1.80856335e+00  1.84077695e-02 -4.75534052e-02 -1.44194201e-01
  2.91456357e-02  0.00000000e+00  6.13592332e-03  1.53398083e-03
  3.68155390e-02  0.00000000e+00  6.13592332e-03  0.00000000e+00
  1.56926239e+00 -7.66990380e-03  4.34116572e-01 -3.39009762e-01]","[ 1.79167928  0.02940236 -0.06640229 -0.15756371  0.          0.
  0.          0.          0.          0.          0.          0.
  1.56947926 -0.0105026   0.41233339 -0.35814456]"
38,1708577555.101149,"[ 1.45763628e-04 -1.55597953e-03 -5.20761059e-04 -9.45509006e-04
 -1.57001666e+00 -2.48367681e-03]","[ 1.80856335e+00  1.84077695e-02 -4.90873866e-02 -1.44194201e-01
  2.91456357e-02  0.00000000e+00  6.13592332e-03  1.53398083e-03
  3.68155390e-02  0.00000000e+00  6.13592332e-03  0.00000000e+00
  1.56926239e+00 -7.66990380e-03  4.34116572e-01 -3.39009762e-01]","[ 1.79167928  0.02940236 -0.06640229 -0.15756371  0.          0.
  0.          0.          0.          0.          0.          0.
  1.56947926 -0.0105026   0.41233339 -0.35814456]"
39,1708577555.2166543,"[ 1.45215331e-04 -1.55961443e-03 -5.21376642e-04 -9.46369204e-04
 -1.57001666e+00 -2.48367681e-03]","[ 1.80856335e+00  1.84077695e-02 -4.75534052e-02 -1.44194201e-01
  2.91456357e-02  0.00000000e+00  6.13592332e-03  1.53398083e-03
  3.68155390e-02  0.00000000e+00  6.13592332e-03  0.00000000e+00
  1.56926239e+00 -7.66990380e-03  4.34116572e-01 -3.39009762e-01]","[ 1.79167928  0.02940236 -0.06640229 -0.15756371  0.          0.
  0.          0.          0.          0.          0.          0.
  1.56947926 -0.0105026   0.41233339 -0.35814456]"
40,1708577555.3759027,"[ 1.44667035e-04 -1.56376860e-03 -5.20761059e-04 -9.46369204e-04
 -1.57001666e+00 -2.48367681e-03]","[ 1.80702937e+00  1.84077695e-02 -4.75534052e-02 -1.44194201e-01
  2.91456357e-02  0.00000000e+00  6.13592332e-03  1.53398083e-03
  3.68155390e-02  0.00000000e+00  6.13592332e-03  0.00000000e+00
  1.56926239e+00 -7.66990380e-03  4.34116572e-01 -3.39009762e-01]","[ 1.79167928  0.02940236 -0.06640229 -0.15756371  0.          0.
  0.          0.          0.          0.          0.          0.
  1.56947926 -0.0105026   0.41233339 -0.35814456]"
41,1708577555.6605985,"[ 1.45763628e-04 -1.56688423e-03 -5.20145477e-04 -9.48089600e-04
 -1.57001590e+00 -2.48366173e-03]","[ 1.80702937e+00  3.06796152e-02 -4.75534052e-02 -1.44194201e-01
  2.91456357e-02  0.00000000e+00  6.13592332e-03  1.53398083e-03
  3.68155390e-02  0.00000000e+00  6.13592332e-03  0.00000000e+00
  1.57386434e+00 -7.66990380e-03  4.34116572e-01 -3.39009762e-01]","[ 1.79167928  0.02940236 -0.06640229 -0.15756371  0.          0.
  0.          0.          0.          0.          0.          0.
  1.56947926 -0.0105026   0.41233339 -0.35814456]"
42,1708577555.766514,"[ 1.45763628e-04 -1.56948059e-03 -5.20145477e-04 -9.49809996e-04
 -1.57001590e+00 -2.48366173e-03]","[ 1.80702937e+00  3.06796152e-02 -4.90873866e-02 -1.44194201e-01
  2.91456357e-02  0.00000000e+00  6.13592332e-03  1.53398083e-03
  3.68155390e-02  0.00000000e+00  6.13592332e-03  0.00000000e+00
  1.57386434e+00 -7.66990380e-03  4.34116572e-01 -3.39009762e-01]","[ 1.79167928  0.02940236 -0.06640229 -0.15756371  0.          0.
  0.          0.          0.          0.          0.          0.
  1.56947926 -0.0105026   0.41233339 -0.35814456]"
43,1708577555.89126,"[ 1.45763628e-04 -1.57207695e-03 -5.20145477e-04 -9.50670194e-04
 -1.57001515e+00 -2.48364665e-03]","[ 1.80702937e+00  2.91456357e-02 -4.90873866e-02 -1.44194201e-01
  2.91456357e-02  0.00000000e+00  6.13592332e-03  1.53398083e-03
  3.68155390e-02  0.00000000e+00  6.13592332e-03  0.00000000e+00
  1.57079637e+00 -7.66990380e-03  4.34116572e-01 -3.39009762e-01]","[ 1.79167928  0.02940236 -0.06640229 -0.15756371  0.          0.
  0.          0.          0.          0.          0.          0.
  1.56947926 -0.0105026   0.41233339 -0.35814456]"
44,1708577556.0204139,"[ 1.45763628e-04 -1.57571185e-03 -5.20145477e-04 -9.51530392e-04
 -1.57001515e+00 -2.48364665e-03]","[ 1.80702937e+00  2.91456357e-02 -4.90873866e-02 -1.44194201e-01
  2.91456357e-02  0.00000000e+00  6.13592332e-03  1.53398083e-03
  3.68155390e-02  0.00000000e+00  6.13592332e-03  0.00000000e+00
  1.56926239e+00 -7.66990380e-03  4.34116572e-01 -3.39009762e-01]","[ 1.79167928  0.02940236 -0.06640229 -0.15756371  0.          0.
  0.          0.          0.          0.          0.          0.
  1.56947926 -0.0105026   0.41233339 -0.35814456]"
45,1708577556.1465058,"[ 1.45763628e-04 -1.57830821e-03 -5.20145477e-04 -9.52390590e-04
 -1.57001439e+00 -2.48363157e-03]","[ 1.80549538e+00  3.06796152e-02 -4.90873866e-02 -1.44194201e-01
  2.91456357e-02  0.00000000e+00  6.13592332e-03  1.53398083e-03
  3.68155390e-02  0.00000000e+00  6.13592332e-03  0.00000000e+00
  1.57079637e+00 -7.66990380e-03  4.34116572e-01 -3.39009762e-01]","[ 1.79167928  0.02940236 -0.06640229 -0.15756371  0.          0.
  0.          0.          0.          0.          0.          0.
  1.56947926 -0.0105026   0.41233339 -0.35814456]"
46,1708577556.2643015,"[ 1.45763628e-04 -1.58194311e-03 -5.20145477e-04 -9.53250788e-04
 -1.57001439e+00 -2.48515001e-03]","[ 1.80549538e+00  3.06796152e-02 -4.90873866e-02 -1.44194201e-01
  2.91456357e-02  0.00000000e+00  6.13592332e-03  1.53398083e-03
  3.68155390e-02  0.00000000e+00  6.13592332e-03  0.00000000e+00
  1.56926239e+00 -7.66990380e-03  4.34116572e-01 -3.39009762e-01]","[ 1.79167928  0.02940236 -0.06640229 -0.15756371  0.          0.
  0.          0.          0.          0.          0.          0.
  1.56947926 -0.0105026   0.41233339 -0.35814456]"
47,1708577556.4065144,"[ 1.45215331e-04 -1.58557801e-03 -5.19529895e-04 -9.54110986e-04
 -1.57001439e+00 -2.48515001e-03]","[ 1.80549538e+00  3.22135948e-02 -4.90873866e-02 -1.44194201e-01
  2.91456357e-02  0.00000000e+00  6.13592332e-03  1.53398083e-03
  3.68155390e-02  0.00000000e+00  6.13592332e-03  0.00000000e+00
  1.57079637e+00 -7.66990380e-03  4.34116572e-01 -3.39009762e-01]","[ 1.79167928  0.02940236 -0.06640229 -0.15756371  0.          0.
  0.          0.          0.          0.          0.          0.
  1.56947926 -0.0105026   0.41233339 -0.35814456]"
48,1708577556.5264833,"[ 1.45763628e-04 -1.58817436e-03 -5.20145477e-04 -9.54971184e-04
 -1.57001439e+00 -2.48515001e-03]","[ 1.80702937e+00  3.22135948e-02 -4.90873866e-02 -1.44194201e-01
  2.91456357e-02  0.00000000e+00  6.13592332e-03  1.53398083e-03
  3.68155390e-02  0.00000000e+00  6.13592332e-03  0.00000000e+00
  1.57079637e+00 -7.66990380e-03  4.32582587e-01 -3.39009762e-01]","[ 1.79167928  0.02940236 -0.06640229 -0.15756371  0.          0.
  0.          0.          0.          0.          0.          0.
  1.56947926 -0.0105026   0.41233339 -0.35814456]"
49,1708577556.6746888,"[ 1.45763628e-04 -1.59077072e-03 -5.19529895e-04 -9.55831382e-04
 -1.57001439e+00 -2.48515001e-03]","[ 1.80549538e+00  3.22135948e-02 -4.90873866e-02 -1.44194201e-01
  2.91456357e-02  0.00000000e+00  6.13592332e-03  1.53398083e-03
  3.68155390e-02  0.00000000e+00  6.13592332e-03  0.00000000e+00
  1.57079637e+00 -7.66990380e-03  4.34116572e-01 -3.39009762e-01]","[ 1.79167928  0.02940236 -0.06640229 -0.15756371  0.          0.
  0.          0.          0.          0.          0.          0.
  1.56947926 -0.0105026   0.41233339 -0.35814456]"
50,1708577556.8170564,"[ 1.45763628e-04 -1.59336708e-03 -5.19529895e-04 -9.55831382e-04
 -1.57001439e+00 -2.48515001e-03]","[ 1.80549538e+00  3.22135948e-02 -4.90873866e-02 -1.44194201e-01
  2.91456357e-02  0.00000000e+00  7.66990380e-03  1.53398083e-03
  3.68155390e-02  0.00000000e+00  6.13592332e-03  0.00000000e+00
  1.57079637e+00 -7.66990380e-03  4.34116572e-01 -3.39009762e-01]","[ 1.79167928  0.02940236 -0.06640229 -0.15756371  0.          0.
  0.          0.          0.          0.          0.          0.
  1.56947926 -0.0105026   0.41233339 -0.35814456]"
51,1708577556.9606683,"[ 1.46311925e-04 -1.59544417e-03 -5.19529895e-04 -9.56691580e-04
 -1.57001364e+00 -2.48513493e-03]","[ 1.80702937e+00  3.22135948e-02 -4.90873866e-02 -1.44194201e-01
  2.91456357e-02  0.00000000e+00  6.13592332e-03  1.53398083e-03
  3.68155390e-02  0.00000000e+00  6.13592332e-03  0.00000000e+00
  1.57079637e+00 -7.66990380e-03  4.34116572e-01 -3.39009762e-01]","[ 1.79167928  0.02940236 -0.06640229 -0.15756371  0.          0.
  0.          0.          0.          0.          0.          0.
  1.56947926 -0.0105026   0.41233339 -0.35814456]"
52,1708577557.06603,"[ 1.45763628e-04 -1.59752125e-03 -5.18914312e-04 -9.57551778e-04
 -1.57001364e+00 -2.48513493e-03]","[ 1.80702937e+00  3.22135948e-02 -4.90873866e-02 -1.44194201e-01
  2.91456357e-02  0.00000000e+00  6.13592332e-03  1.53398083e-03
  3.68155390e-02  0.00000000e+00  6.13592332e-03  0.00000000e+00
  1.57079637e+00 -7.66990380e-03  4.34116572e-01 -3.39009762e-01]","[ 1.79167928  0.02940236 -0.06640229 -0.15756371  0.          0.
  0.          0.          0.          0.          0.          0.
  1.56947926 -0.0105026   0.41233339 -0.35814456]"
53,1708577557.1940682,"[ 1.45763628e-04 -1.59959834e-03 -5.19529895e-04 -9.58411976e-04
 -1.57001364e+00 -2.48513493e-03]","[ 1.80549538e+00  3.37475762e-02 -4.90873866e-02 -1.44194201e-01
  2.91456357e-02  0.00000000e+00  6.13592332e-03  1.53398083e-03
  3.68155390e-02  0.00000000e+00  6.13592332e-03  0.00000000e+00
  1.57233036e+00 -7.66990380e-03  4.34116572e-01 -3.39009762e-01]","[ 1.79167928  0.02940236 -0.06640229 -0.15756371  0.          0.
  0.          0.          0.          0.          0.          0.
  1.56947926 -0.0105026   0.41233339 -0.35814456]"
54,1708577557.3406312,"[ 1.45763628e-04 -1.60219469e-03 -5.18914312e-04 -9.58411976e-04
 -1.57001364e+00 -2.48513493e-03]","[ 1.80702937e+00  3.22135948e-02 -4.90873866e-02 -1.44194201e-01
  2.91456357e-02  0.00000000e+00  6.13592332e-03  1.53398083e-03
  3.68155390e-02  0.00000000e+00  6.13592332e-03  0.00000000e+00
  1.57233036e+00 -7.66990380e-03  4.34116572e-01 -3.39009762e-01]","[ 1.79167928  0.02940236 -0.06640229 -0.15756371  0.          0.
  0.          0.          0.          0.          0.          0.
  1.56947926 -0.0105026   0.41233339 -0.35814456]"
55,1708577557.4552612,"[ 1.45763628e-04 -1.60323324e-03 -5.19529895e-04 -9.59272174e-04
 -1.57001364e+00 -2.48513493e-03]","[ 1.80702937e+00  3.37475762e-02 -4.90873866e-02 -1.44194201e-01
  2.91456357e-02  0.00000000e+00  6.13592332e-03  1.53398083e-03
  3.68155390e-02  0.00000000e+00  6.13592332e-03  0.00000000e+00
  1.57233036e+00 -6.13592332e-03  4.34116572e-01 -3.39009762e-01]","[ 1.79167928  0.02940236 -0.06640229 -0.15756371  0.          0.
  0.          0.          0.          0.          0.          0.
  1.56947926 -0.0105026   0.41233339 -0.35814456]"
56,1708577557.5640445,"[ 1.46311925e-04 -1.60582960e-03 -5.19529895e-04 -9.59272174e-04
 -1.57001364e+00 -2.48513493e-03]","[ 1.80702937e+00  3.52815576e-02 -4.90873866e-02 -1.44194201e-01
  2.91456357e-02  0.00000000e+00  6.13592332e-03  1.53398083e-03
  3.68155390e-02  0.00000000e+00  6.13592332e-03  0.00000000e+00
  1.57539833e+00 -6.13592332e-03  4.34116572e-01 -3.39009762e-01]","[ 1.79167928  0.02940236 -0.06640229 -0.15756371  0.          0.
  0.          0.          0.          0.          0.          0.
  1.56947926 -0.0105026   0.41233339 -0.35814456]"
57,1708577557.7125013,"[ 1.45763628e-04 -1.60738741e-03 -5.18914312e-04 -9.60132372e-04
 -1.57001364e+00 -2.48513493e-03]","[ 1.80702937e+00  3.37475762e-02 -4.75534052e-02 -1.44194201e-01
  2.91456357e-02  0.00000000e+00  6.13592332e-03  1.53398083e-03
  3.68155390e-02  0.00000000e+00  6.13592332e-03  0.00000000e+00
  1.57539833e+00 -6.13592332e-03  4.34116572e-01 -3.39009762e-01]","[ 1.79167928  0.02940236 -0.06640229 -0.15756371  0.          0.
  0.          0.          0.          0.          0.          0.
  1.56947926 -0.0105026   0.41233339 -0.35814456]"
58,1708577557.8375719,"[ 1.45763628e-04 -1.60946450e-03 -5.19529895e-04 -9.60992570e-04
 -1.57001439e+00 -2.48515001e-03]","[ 1.80702937e+00  3.52815576e-02 -4.75534052e-02 -1.44194201e-01
  2.91456357e-02  0.00000000e+00  7.66990380e-03  1.53398083e-03
  3.68155390e-02  0.00000000e+00  6.13592332e-03  0.00000000e+00
  1.57693219e+00 -4.60194238e-03  4.34116572e-01 -3.39009762e-01]","[ 1.79167928  0.02940236 -0.06640229 -0.15756371  0.          0.
  0.          0.          0.          0.          0.          0.
  1.56947926 -0.0105026   0.41233339 -0.35814456]"
59,1708577557.9623206,"[ 1.45763628e-04 -1.61258013e-03 -5.18914312e-04 -9.60992570e-04
 -1.57001439e+00 -2.48515001e-03]","[ 1.80702937e+00  3.52815576e-02 -4.75534052e-02 -1.44194201e-01
  2.91456357e-02  0.00000000e+00  6.13592332e-03  1.53398083e-03
  3.68155390e-02  0.00000000e+00  6.13592332e-03  0.00000000e+00
  1.57693219e+00 -4.60194238e-03  4.34116572e-01 -3.39009762e-01]","[ 1.79167928  0.02940236 -0.06640229 -0.15756371  0.          0.
  0.          0.          0.          0.          0.          0.
  1.56947926 -0.0105026   0.41233339 -0.35814456]"
60,1708577558.1032314,"[ 1.45763628e-04 -1.61465721e-03 -5.19529895e-04 -9.61852768e-04
 -1.57001439e+00 -2.48515001e-03]","[ 1.80702937e+00  3.68155390e-02 -4.75534052e-02 -1.44194201e-01
  2.91456357e-02  0.00000000e+00  6.13592332e-03  1.53398083e-03
  3.68155390e-02  0.00000000e+00  6.13592332e-03  0.00000000e+00
  1.57846618e+00 -4.60194238e-03  4.34116572e-01 -3.39009762e-01]","[ 1.79167928  0.02940236 -0.06640229 -0.15756371  0.          0.
  0.          0.          0.          0.          0.          0.
  1.56947926 -0.0105026   0.41233339 -0.35814456]"
61,1708577558.246454,"[ 1.45763628e-04 -1.61673430e-03 -5.18914312e-04 -9.61852768e-04
 -1.57001439e+00 -2.48515001e-03]","[ 1.80702937e+00  3.68155390e-02 -4.75534052e-02 -1.44194201e-01
  2.91456357e-02  0.00000000e+00  6.13592332e-03  1.53398083e-03
  3.68155390e-02  0.00000000e+00  7.66990380e-03  0.00000000e+00
  1.57846618e+00 -4.60194238e-03  4.34116572e-01 -3.39009762e-01]","[ 1.79167928  0.02940236 -0.06640229 -0.15756371  0.          0.
  0.          0.          0.          0.          0.          0.
  1.56947926 -0.0105026   0.41233339 -0.35814456]"
62,1708577558.3911135,"[ 1.45763628e-04 -1.61933065e-03 -5.19529895e-04 -9.62712966e-04
 -1.57001515e+00 -2.48516509e-03]","[ 1.80702937e+00  3.68155390e-02 -4.75534052e-02 -1.44194201e-01
  2.91456357e-02  0.00000000e+00  6.13592332e-03  1.53398083e-03
  3.68155390e-02  0.00000000e+00  6.13592332e-03  0.00000000e+00
  1.58000016e+00 -6.13592332e-03  4.34116572e-01 -3.39009762e-01]","[ 1.79167928  0.02940236 -0.06640229 -0.15756371  0.          0.
  0.          0.          0.          0.          0.          0.
  1.56947926 -0.0105026   0.41233339 -0.35814456]"
63,1708577558.50687,"[ 1.45763628e-04 -1.62088847e-03 -5.18914312e-04 -9.62712966e-04
 -1.57001439e+00 -2.48515001e-03]","[ 1.80702937e+00  3.68155390e-02 -4.75534052e-02 -1.44194201e-01
  2.91456357e-02  0.00000000e+00  6.13592332e-03  1.53398083e-03
  3.68155390e-02  0.00000000e+00  6.13592332e-03  0.00000000e+00
  1.58000016e+00 -6.13592332e-03  4.34116572e-01 -3.39009762e-01]","[ 1.79167928  0.02940236 -0.06640229 -0.15756371  0.          0.
  0.          0.          0.          0.          0.          0.
  1.56947926 -0.0105026   0.41233339 -0.35814456]"
64,1708577558.6083074,"[ 1.45763628e-04 -1.62452337e-03 -5.18914312e-04 -9.63573164e-04
 -1.57001439e+00 -2.48515001e-03]","[ 1.80702937e+00  3.68155390e-02 -4.75534052e-02 -1.44194201e-01
  2.91456357e-02  0.00000000e+00  6.13592332e-03  1.53398083e-03
  3.68155390e-02  0.00000000e+00  6.13592332e-03  0.00000000e+00
  1.58000016e+00 -4.60194238e-03  4.34116572e-01 -3.39009762e-01]","[ 1.79167928  0.02940236 -0.06640229 -0.15756371  0.          0.
  0.          0.          0.          0.          0.          0.
  1.56947926 -0.0105026   0.41233339 -0.35814456]"
65,1708577558.757781,"[ 1.45763628e-04 -1.62815827e-03 -5.18914312e-04 -9.64433362e-04
 -1.57001439e+00 -2.48515001e-03]","[ 1.80702937e+00  3.68155390e-02 -4.75534052e-02 -1.44194201e-01
  2.91456357e-02  0.00000000e+00  6.13592332e-03  1.53398083e-03
  3.68155390e-02  0.00000000e+00  6.13592332e-03  0.00000000e+00
  1.58000016e+00 -4.60194238e-03  4.34116572e-01 -3.39009762e-01]","[ 1.79167928  0.02940236 -0.06640229 -0.15756371  0.          0.
  0.          0.          0.          0.          0.          0.
  1.56947926 -0.0105026   0.41233339 -0.35814456]"
66,1708577558.8894753,"[ 1.45763628e-04 -1.63075463e-03 -5.18298730e-04 -9.64433362e-04
 -1.57001439e+00 -2.48515001e-03]","[ 1.80702937e+00  3.68155390e-02 -4.75534052e-02 -1.44194201e-01
  2.91456357e-02  0.00000000e+00  6.13592332e-03  1.53398083e-03
  3.68155390e-02  0.00000000e+00  6.13592332e-03  0.00000000e+00
  1.58000016e+00 -6.13592332e-03  4.34116572e-01 -3.39009762e-01]","[ 1.79167928  0.02940236 -0.06640229 -0.15756371  0.          0.
  0.          0.          0.          0.          0.          0.
  1.56947926 -0.0105026   0.41233339 -0.35814456]"
67,1708577559.1040578,"[ 1.45763628e-04 -1.63646661e-03 -5.18298730e-04 -9.65293560e-04
 -1.57001439e+00 -2.48515001e-03]","[ 1.80702937e+00  3.68155390e-02 -4.75534052e-02 -1.44194201e-01
  2.91456357e-02  0.00000000e+00  6.13592332e-03  1.53398083e-03
  3.68155390e-02  0.00000000e+00  6.13592332e-03  0.00000000e+00
  1.58000016e+00 -4.60194238e-03  4.34116572e-01 -3.39009762e-01]","[ 1.79167928  0.02940236 -0.06640229 -0.15756371  0.          0.
  0.          0.          0.          0.          0.          0.
  1.56947926 -0.0105026   0.41233339 -0.35814456]"
68,1708577559.223159,"[ 1.46311925e-04 -1.63958224e-03 -5.17683148e-04 -9.66153758e-04
 -1.57001439e+00 -2.48515001e-03]","[ 1.80702937e+00  3.68155390e-02 -4.75534052e-02 -1.44194201e-01
  2.91456357e-02  0.00000000e+00  6.13592332e-03  1.53398083e-03
  3.68155390e-02  0.00000000e+00  6.13592332e-03  0.00000000e+00
  1.58000016e+00 -6.13592332e-03  4.34116572e-01 -3.39009762e-01]","[ 1.79167928  0.02940236 -0.06640229 -0.15756371  0.          0.
  0.          0.          0.          0.          0.          0.
  1.56947926 -0.0105026   0.41233339 -0.35814456]"
69,1708577559.3673847,"[ 1.45763628e-04 -1.64269787e-03 -5.18298730e-04 -9.67013956e-04
 -1.57001439e+00 -2.48515001e-03]","[ 1.80702937e+00  3.68155390e-02 -4.75534052e-02 -1.44194201e-01
  2.91456357e-02  0.00000000e+00  6.13592332e-03  1.53398083e-03
  3.68155390e-02  0.00000000e+00  6.13592332e-03  0.00000000e+00
  1.58000016e+00 -6.13592332e-03  4.34116572e-01 -3.39009762e-01]","[ 1.79167928  0.02940236 -0.06640229 -0.15756371  0.          0.
  0.          0.          0.          0.          0.          0.
  1.56947926 -0.0105026   0.41233339 -0.35814456]"
70,1708577559.5119984,"[ 1.45763628e-04 -1.64477496e-03 -5.17683148e-04 -9.67013956e-04
 -1.57001439e+00 -2.48515001e-03]","[ 1.80702937e+00  3.68155390e-02 -4.75534052e-02 -1.44194201e-01
  2.91456357e-02  0.00000000e+00  6.13592332e-03  1.53398083e-03
  3.68155390e-02  0.00000000e+00  6.13592332e-03  0.00000000e+00
  1.58000016e+00 -6.13592332e-03  4.34116572e-01 -3.39009762e-01]","[ 1.79167928  0.02940236 -0.06640229 -0.15756371  0.          0.
  0.          0.          0.          0.          0.          0.
  1.56947926 -0.0105026   0.41233339 -0.35814456]"
71,1708577559.6287665,"[ 1.46311925e-04 -1.64789059e-03 -5.17683148e-04 -9.67013956e-04
 -1.57001439e+00 -2.48515001e-03]","[ 1.80702937e+00  3.68155390e-02 -4.75534052e-02 -1.44194201e-01
  2.91456357e-02  0.00000000e+00  6.13592332e-03  1.53398083e-03
  3.68155390e-02  0.00000000e+00  6.13592332e-03  0.00000000e+00
  1.58000016e+00 -4.60194238e-03  4.34116572e-01 -3.39009762e-01]","[ 1.79167928  0.02940236 -0.06640229 -0.15756371  0.          0.
  0.          0.          0.          0.          0.          0.
  1.56947926 -0.0105026   0.41233339 -0.35814456]"
72,1708577559.7664964,"[ 1.46311925e-04 -1.65100622e-03 -5.17683148e-04 -9.67874154e-04
 -1.57001439e+00 -2.48515001e-03]","[ 1.80702937e+00  3.68155390e-02 -4.75534052e-02 -1.44194201e-01
  2.91456357e-02  0.00000000e+00  6.13592332e-03  1.53398083e-03
  3.68155390e-02  0.00000000e+00  6.13592332e-03  0.00000000e+00
  1.58000016e+00 -6.13592332e-03  4.34116572e-01 -3.39009762e-01]","[ 1.79167928  0.02940236 -0.06640229 -0.15756371  0.          0.
  0.          0.          0.          0.          0.          0.
  1.56947926 -0.0105026   0.41233339 -0.35814456]"
73,1708577559.8968377,"[ 1.46311925e-04 -1.65412185e-03 -5.17683148e-04 -9.68734352e-04
 -1.57001439e+00 -2.48515001e-03]","[ 1.80702937e+00  3.68155390e-02 -4.75534052e-02 -1.44194201e-01
  2.91456357e-02  0.00000000e+00  6.13592332e-03  1.53398083e-03
  3.68155390e-02  0.00000000e+00  6.13592332e-03  0.00000000e+00
  1.58000016e+00 -6.13592332e-03  4.34116572e-01 -3.39009762e-01]","[ 1.79167928  0.02940236 -0.06640229 -0.15756371  0.          0.
  0.          0.          0.          0.          0.          0.
  1.56947926 -0.0105026   0.41233339 -0.35814456]"
74,1708577560.0753565,"[ 1.46311925e-04 -1.65723748e-03 -5.17683148e-04 -9.68734352e-04
 -1.57001439e+00 -2.48515001e-03]","[ 1.80702937e+00  3.68155390e-02 -4.75534052e-02 -1.44194201e-01
  2.91456357e-02  0.00000000e+00  6.13592332e-03  1.53398083e-03
  3.68155390e-02  0.00000000e+00  6.13592332e-03  0.00000000e+00
  1.58000016e+00 -6.13592332e-03  4.34116572e-01 -3.39009762e-01]","[ 1.79167928  0.02940236 -0.06640229 -0.15756371  0.          0.
  0.          0.          0.          0.          0.          0.
  1.56947926 -0.0105026   0.41233339 -0.35814456]"
75,1708577560.2296715,"[ 1.46311925e-04 -1.66035310e-03 -5.17683148e-04 -9.69594550e-04
 -1.57001439e+00 -2.48515001e-03]","[ 1.80702937e+00  3.68155390e-02 -4.75534052e-02 -1.44194201e-01
  2.91456357e-02  0.00000000e+00  6.13592332e-03  1.53398083e-03
  3.68155390e-02  0.00000000e+00  6.13592332e-03  0.00000000e+00
  1.58000016e+00 -6.13592332e-03  4.32582587e-01 -3.39009762e-01]","[ 1.79167928  0.02940236 -0.06640229 -0.15756371  0.          0.
  0.          0.          0.          0.          0.          0.
  1.56947926 -0.0105026   0.41233339 -0.35814456]"
76,1708577560.3993223,"[ 1.46860222e-04 -1.66502655e-03 -5.17683148e-04 -9.70454748e-04
 -1.57001439e+00 -2.48515001e-03]","[ 1.80702937e+00  3.68155390e-02 -4.75534052e-02 -1.44194201e-01
  2.91456357e-02  0.00000000e+00  6.13592332e-03  1.53398083e-03
  3.68155390e-02  0.00000000e+00  6.13592332e-03  0.00000000e+00
  1.58000016e+00 -6.13592332e-03  4.32582587e-01 -3.39009762e-01]","[ 1.79167928  0.02940236 -0.06640229 -0.15756371  0.          0.
  0.          0.          0.          0.          0.          0.
  1.56947926 -0.0105026   0.41233339 -0.35814456]"
77,1708577560.611473,"[ 1.46860222e-04 -1.66918072e-03 -5.17067565e-04 -9.71314946e-04
 -1.57001439e+00 -2.48515001e-03]","[ 1.80702937e+00  3.68155390e-02 -4.75534052e-02 -1.44194201e-01
  2.91456357e-02  0.00000000e+00  6.13592332e-03  1.53398083e-03
  3.68155390e-02  0.00000000e+00  6.13592332e-03  0.00000000e+00
  1.58000016e+00 -6.13592332e-03  4.32582587e-01 -3.39009762e-01]","[ 1.79167928  0.02940236 -0.06640229 -0.15756371  0.          0.
  0.          0.          0.          0.          0.          0.
  1.56947926 -0.0105026   0.41233339 -0.35814456]"
78,1708577560.795412,"[ 1.46860222e-04 -1.67177708e-03 -5.17067565e-04 -9.71314946e-04
 -1.57001515e+00 -2.48516509e-03]","[ 1.80702937e+00  3.68155390e-02 -4.75534052e-02 -1.44194201e-01
  2.91456357e-02  0.00000000e+00  6.13592332e-03  1.53398083e-03
  3.68155390e-02  0.00000000e+00  6.13592332e-03  0.00000000e+00
  1.58153415e+00 -6.13592332e-03  4.32582587e-01 -3.39009762e-01]","[ 1.79167928  0.02940236 -0.06640229 -0.15756371  0.          0.
  0.          0.          0.          0.          0.          0.
  1.56947926 -0.0105026   0.41233339 -0.35814456]"
79,1708577560.9502141,"[ 1.46860222e-04 -1.67489271e-03 -5.16451983e-04 -9.72175144e-04
 -1.57001515e+00 -2.48516509e-03]","[ 1.80702937e+00  3.68155390e-02 -4.75534052e-02 -1.44194201e-01
  2.91456357e-02  0.00000000e+00  6.13592332e-03  1.53398083e-03
  3.68155390e-02  0.00000000e+00  6.13592332e-03  0.00000000e+00
  1.58000016e+00 -6.13592332e-03  4.32582587e-01 -3.39009762e-01]","[ 1.79167928  0.02940236 -0.06640229 -0.15756371  0.          0.
  0.          0.          0.          0.          0.          0.
  1.56947926 -0.0105026   0.41233339 -0.35814456]"
80,1708577561.050131,"[ 1.46860222e-04 -1.67748906e-03 -5.16451983e-04 -9.72175144e-04
 -1.57001515e+00 -2.48516509e-03]","[ 1.80702937e+00  3.68155390e-02 -4.75534052e-02 -1.44194201e-01
  2.91456357e-02  0.00000000e+00  6.13592332e-03  1.53398083e-03
  3.68155390e-02  0.00000000e+00  6.13592332e-03  0.00000000e+00
  1.58153415e+00 -6.13592332e-03  4.32582587e-01 -3.39009762e-01]","[ 1.79167928  0.02940236 -0.06640229 -0.15756371  0.          0.
  0.          0.          0.          0.          0.          0.
  1.56947926 -0.0105026   0.41233339 -0.35814456]"
81,1708577561.1641173,"[ 1.46860222e-04 -1.68008542e-03 -5.17067565e-04 -9.73035342e-04
 -1.57001439e+00 -2.48515001e-03]","[ 1.80702937e+00  3.68155390e-02 -4.75534052e-02 -1.44194201e-01
  2.91456357e-02  0.00000000e+00  6.13592332e-03  1.53398083e-03
  3.68155390e-02  0.00000000e+00  6.13592332e-03  0.00000000e+00
  1.58153415e+00 -6.13592332e-03  4.32582587e-01 -3.39009762e-01]","[ 1.79167928  0.02940236 -0.06640229 -0.15756371  0.          0.
  0.          0.          0.          0.          0.          0.
  1.56947926 -0.0105026   0.41233339 -0.35814456]"
82,1708577561.268193,"[ 1.46860222e-04 -1.68423959e-03 -5.16451983e-04 -9.73895540e-04
 -1.57001515e+00 -2.48516509e-03]","[ 1.80702937e+00  3.68155390e-02 -4.75534052e-02 -1.44194201e-01
  2.91456357e-02  0.00000000e+00  6.13592332e-03  1.53398083e-03
  3.68155390e-02  0.00000000e+00  6.13592332e-03  0.00000000e+00
  1.58153415e+00 -6.13592332e-03  4.32582587e-01 -3.39009762e-01]","[ 1.79167928  0.02940236 -0.06640229 -0.15756371  0.          0.
  0.          0.          0.          0.          0.          0.
  1.56947926 -0.0105026   0.41233339 -0.35814456]"
83,1708577561.40657,"[ 1.46860222e-04 -1.68787449e-03 -5.16451983e-04 -9.73895540e-04
 -1.57001439e+00 -2.48515001e-03]","[ 1.80702937e+00  3.68155390e-02 -4.90873866e-02 -1.44194201e-01
  2.91456357e-02  0.00000000e+00  6.13592332e-03  1.53398083e-03
  3.68155390e-02  0.00000000e+00  7.66990380e-03  0.00000000e+00
  1.58153415e+00 -6.13592332e-03  4.32582587e-01 -3.39009762e-01]","[ 1.79167928  0.02940236 -0.06640229 -0.15756371  0.          0.
  0.          0.          0.          0.          0.          0.
  1.56947926 -0.0105026   0.41233339 -0.35814456]"
84,1708577561.5517423,"[ 1.47408519e-04 -1.69150940e-03 -5.17067565e-04 -9.74755738e-04
 -1.57001515e+00 -2.48516509e-03]","[ 1.80702937e+00  3.52815576e-02 -4.75534052e-02 -1.44194201e-01
  2.91456357e-02  0.00000000e+00  6.13592332e-03  1.53398083e-03
  3.68155390e-02  0.00000000e+00  6.13592332e-03  0.00000000e+00
  1.58153415e+00 -6.13592332e-03  4.32582587e-01 -3.40543747e-01]","[ 1.79167928  0.02940236 -0.06640229 -0.15756371  0.          0.
  0.          0.          0.          0.          0.          0.
  1.56947926 -0.0105026   0.41233339 -0.35814456]"
85,1708577561.685804,"[ 1.47408519e-04 -1.69410575e-03 -5.15836401e-04 -9.75615936e-04
 -1.57001515e+00 -2.48516509e-03]","[ 1.80702937e+00  3.52815576e-02 -4.90873866e-02 -1.44194201e-01
  2.91456357e-02  0.00000000e+00  6.13592332e-03  1.53398083e-03
  3.68155390e-02  0.00000000e+00  6.13592332e-03  0.00000000e+00
  1.58153415e+00 -6.13592332e-03  4.32582587e-01 -3.40543747e-01]","[ 1.79167928  0.02940236 -0.06640229 -0.15756371  0.          0.
  0.          0.          0.          0.          0.          0.
  1.56947926 -0.0105026   0.41233339 -0.35814456]"
86,1708577561.7841127,"[ 1.47408519e-04 -1.69670211e-03 -5.16451983e-04 -9.75615936e-04
 -1.57001439e+00 -2.48515001e-03]","[ 1.80702937e+00  3.37475762e-02 -4.90873866e-02 -1.44194201e-01
  2.91456357e-02  0.00000000e+00  6.13592332e-03  1.53398083e-03
  3.68155390e-02  0.00000000e+00  6.13592332e-03  0.00000000e+00
  1.58153415e+00 -6.13592332e-03  4.32582587e-01 -3.40543747e-01]","[ 1.79167928  0.02940236 -0.06640229 -0.15756371  0.          0.
  0.          0.          0.          0.          0.          0.
  1.56947926 -0.0105026   0.41233339 -0.35814456]"
87,1708577561.9088385,"[ 1.47408519e-04 -1.69929847e-03 -5.16451983e-04 -9.76476134e-04
 -1.57001515e+00 -2.48516509e-03]","[ 1.80702937e+00  3.37475762e-02 -4.90873866e-02 -1.44194201e-01
  2.91456357e-02  0.00000000e+00  6.13592332e-03  1.53398083e-03
  3.68155390e-02  0.00000000e+00  6.13592332e-03  0.00000000e+00
  1.58153415e+00 -6.13592332e-03  4.32582587e-01 -3.40543747e-01]","[ 1.79167928  0.02940236 -0.06640229 -0.15756371  0.          0.
  0.          0.          0.          0.          0.          0.
  1.56947926 -0.0105026   0.41233339 -0.35814456]"
88,1708577562.018029,"[ 1.47408519e-04 -1.70137555e-03 -5.15836401e-04 -9.77336332e-04
 -1.57001439e+00 -2.48515001e-03]","[ 1.80702937e+00  3.37475762e-02 -4.90873866e-02 -1.44194201e-01
  2.91456357e-02  0.00000000e+00  6.13592332e-03  1.53398083e-03
  3.68155390e-02  0.00000000e+00  6.13592332e-03  0.00000000e+00
  1.58153415e+00 -6.13592332e-03  4.32582587e-01 -3.40543747e-01]","[ 1.79167928  0.02940236 -0.06640229 -0.15756371  0.          0.
  0.          0.          0.          0.          0.          0.
  1.56947926 -0.0105026   0.41233339 -0.35814456]"
89,1708577562.1326036,"[ 1.47956816e-04 -1.70552973e-03 -5.15836401e-04 -9.78196530e-04
 -1.57001439e+00 -2.48515001e-03]","[ 1.80702937e+00  3.37475762e-02 -4.90873866e-02 -1.44194201e-01
  2.91456357e-02  0.00000000e+00  6.13592332e-03  1.53398083e-03
  3.68155390e-02  0.00000000e+00  6.13592332e-03  0.00000000e+00
  1.58153415e+00 -6.13592332e-03  4.32582587e-01 -3.40543747e-01]","[ 1.79167928  0.02940236 -0.06640229 -0.15756371  0.          0.
  0.          0.          0.          0.          0.          0.
  1.56947926 -0.0105026   0.41233339 -0.35814456]"
90,1708577562.302396,"[ 1.47956816e-04 -1.70760681e-03 -5.15836401e-04 -9.78196530e-04
 -1.57001515e+00 -2.48516509e-03]","[ 1.80702937e+00  3.37475762e-02 -4.90873866e-02 -1.44194201e-01
  2.91456357e-02  0.00000000e+00  6.13592332e-03  1.53398083e-03
  3.68155390e-02  0.00000000e+00  6.13592332e-03  0.00000000e+00
  1.58153415e+00 -6.13592332e-03  4.32582587e-01 -3.40543747e-01]","[ 1.79167928  0.02940236 -0.06640229 -0.15756371  0.          0.
  0.          0.          0.          0.          0.          0.
  1.56947926 -0.0105026   0.41233339 -0.35814456]"
91,1708577562.4307158,"[ 1.47408519e-04 -1.71020317e-03 -5.15220818e-04 -9.79056728e-04
 -1.57001439e+00 -2.48515001e-03]","[ 1.80702937e+00  3.37475762e-02 -4.90873866e-02 -1.44194201e-01
  2.91456357e-02  0.00000000e+00  6.13592332e-03  1.53398083e-03
  3.68155390e-02  0.00000000e+00  6.13592332e-03  0.00000000e+00
  1.58153415e+00 -6.13592332e-03  4.32582587e-01 -3.40543747e-01]","[ 1.79167928  0.02940236 -0.06640229 -0.15756371  0.          0.
  0.          0.          0.          0.          0.          0.
  1.56947926 -0.0105026   0.41233339 -0.35814456]"
92,1708577562.559744,"[ 1.47956816e-04 -1.71435734e-03 -5.15220818e-04 -9.79916926e-04
 -1.57001439e+00 -2.48515001e-03]","[ 1.80702937e+00  3.37475762e-02 -4.90873866e-02 -1.44194201e-01
  2.91456357e-02  0.00000000e+00  6.13592332e-03  1.53398083e-03
  3.68155390e-02  0.00000000e+00  6.13592332e-03  0.00000000e+00
  1.58153415e+00 -6.13592332e-03  4.32582587e-01 -3.40543747e-01]","[ 1.79167928  0.02940236 -0.06640229 -0.15756371  0.          0.
  0.          0.          0.          0.          0.          0.
  1.56947926 -0.0105026   0.41233339 -0.35814456]"
93,1708577562.7052712,"[ 1.47956816e-04 -1.71695370e-03 -5.14605236e-04 -9.79916926e-04
 -1.57001515e+00 -2.48516509e-03]","[ 1.80702937e+00  3.37475762e-02 -4.90873866e-02 -1.44194201e-01
  2.91456357e-02  0.00000000e+00  6.13592332e-03  1.53398083e-03
  3.68155390e-02  0.00000000e+00  6.13592332e-03  0.00000000e+00
  1.58153415e+00 -4.60194238e-03  4.32582587e-01 -3.40543747e-01]","[ 1.79167928  0.02940236 -0.06640229 -0.15756371  0.          0.
  0.          0.          0.          0.          0.          0.
  1.56947926 -0.0105026   0.41233339 -0.35814456]"
94,1708577562.8024209,"[ 1.47956816e-04 -1.71851151e-03 -5.14605236e-04 -9.79916926e-04
 -1.57001439e+00 -2.48515001e-03]","[ 1.80702937e+00  3.37475762e-02 -4.90873866e-02 -1.44194201e-01
  2.91456357e-02  0.00000000e+00  6.13592332e-03  1.53398083e-03
  3.68155390e-02  0.00000000e+00  7.66990380e-03  0.00000000e+00
  1.58153415e+00 -4.60194238e-03  4.32582587e-01 -3.40543747e-01]","[ 1.79167928  0.02940236 -0.06640229 -0.15756371  0.          0.
  0.          0.          0.          0.          0.          0.
  1.56947926 -0.0105026   0.41233339 -0.35814456]"
95,1708577562.902276,"[ 1.47956816e-04 -1.72058860e-03 -5.14605236e-04 -9.80777124e-04
 -1.57001439e+00 -2.48515001e-03]","[ 1.80549538e+00  3.37475762e-02 -4.90873866e-02 -1.44194201e-01
  2.91456357e-02  0.00000000e+00  6.13592332e-03  1.53398083e-03
  3.68155390e-02  0.00000000e+00  6.13592332e-03  0.00000000e+00
  1.58153415e+00 -6.13592332e-03  4.32582587e-01 -3.40543747e-01]","[ 1.79167928  0.02940236 -0.06640229 -0.15756371  0.          0.
  0.          0.          0.          0.          0.          0.
  1.56947926 -0.0105026   0.41233339 -0.35814456]"
96,1708577563.0156453,"[ 1.47956816e-04 -1.72474277e-03 -5.15220818e-04 -9.81637322e-04
 -1.57001515e+00 -2.48516509e-03]","[ 1.80549538e+00  3.22135948e-02 -4.90873866e-02 -1.44194201e-01
  2.91456357e-02  0.00000000e+00  6.13592332e-03  1.53398083e-03
  3.68155390e-02  0.00000000e+00  7.66990380e-03  0.00000000e+00
  1.58153415e+00 -6.13592332e-03  4.32582587e-01 -3.40543747e-01]","[ 1.79167928  0.02940236 -0.06640229 -0.15756371  0.          0.
  0.          0.          0.          0.          0.          0.
  1.56947926 -0.0105026   0.41233339 -0.35814456]"
97,1708577563.1465676,"[ 1.47956816e-04 -1.72785840e-03 -5.14605236e-04 -9.81637322e-04
 -1.57001439e+00 -2.48515001e-03]","[ 1.80549538e+00  3.06796152e-02 -4.90873866e-02 -1.44194201e-01
  2.91456357e-02  0.00000000e+00  6.13592332e-03  1.53398083e-03
  3.68155390e-02  0.00000000e+00  6.13592332e-03  0.00000000e+00
  1.58153415e+00 -6.13592332e-03  4.32582587e-01 -3.40543747e-01]","[ 1.79167928  0.02940236 -0.06640229 -0.15756371  0.          0.
  0.          0.          0.          0.          0.          0.
  1.56947926 -0.0105026   0.41233339 -0.35814456]"
98,1708577563.2872918,"[ 1.47956816e-04 -1.73149330e-03 -5.14605236e-04 -9.82497520e-04
 -1.57001439e+00 -2.48515001e-03]","[ 1.80549538e+00  2.76116543e-02 -4.90873866e-02 -1.44194201e-01
  2.91456357e-02  0.00000000e+00  6.13592332e-03  1.53398083e-03
  3.68155390e-02  0.00000000e+00  6.13592332e-03  0.00000000e+00
  1.58153415e+00 -6.13592332e-03  4.32582587e-01 -3.40543747e-01]","[ 1.79167928  0.02940236 -0.06640229 -0.15756371  0.          0.
  0.          0.          0.          0.          0.          0.
  1.56947926 -0.0105026   0.41233339 -0.35814456]"
99,1708577563.4016812,"[ 1.48505112e-04 -1.73720529e-03 -5.14605236e-04 -9.84217916e-04
 -1.57001439e+00 -2.48515001e-03]","[ 1.80549538e+00  2.76116543e-02 -4.90873866e-02 -1.44194201e-01
  2.91456357e-02  0.00000000e+00  6.13592332e-03  1.53398083e-03
  3.68155390e-02  0.00000000e+00  6.13592332e-03  0.00000000e+00
  1.58153415e+00 -6.13592332e-03  4.32582587e-01 -3.40543747e-01]","[ 1.79167928  0.02940236 -0.06640229 -0.15756371  0.          0.
  0.          0.          0.          0.          0.          0.
  1.56947926 -0.0105026   0.41233339 -0.35814456]"
100,1708577563.6330814,"[ 1.48505112e-04 -1.74187873e-03 -5.13989653e-04 -9.84217916e-04
 -1.57001439e+00 -2.48666845e-03]","[ 1.80549538e+00  2.76116543e-02 -4.90873866e-02 -1.44194201e-01
  2.91456357e-02  0.00000000e+00  6.13592332e-03  1.53398083e-03
  3.68155390e-02  0.00000000e+00  6.13592332e-03  0.00000000e+00
  1.58153415e+00 -6.13592332e-03  4.32582587e-01 -3.40543747e-01]","[ 1.79167928  0.02940236 -0.06640229 -0.15756371  0.          0.
  0.          0.          0.          0.          0.          0.
  1.56947926 -0.0105026   0.41233339 -0.35814456]"
101,1708577563.7300103,"[ 1.48505112e-04 -1.74447509e-03 -5.13989653e-04 -9.85078113e-04
 -1.57001439e+00 -2.48515001e-03]","[ 1.80549538e+00  2.76116543e-02 -4.90873866e-02 -1.44194201e-01
  2.91456357e-02  0.00000000e+00  6.13592332e-03  1.53398083e-03
  3.68155390e-02  0.00000000e+00  6.13592332e-03  0.00000000e+00
  1.58153415e+00 -6.13592332e-03  4.32582587e-01 -3.40543747e-01]","[ 1.79167928  0.02940236 -0.06640229 -0.15756371  0.          0.
  0.          0.          0.          0.          0.          0.
  1.56947926 -0.0105026   0.41233339 -0.35814456]"
102,1708577563.8299782,"[ 1.48505112e-04 -1.74810999e-03 -5.13989653e-04 -9.85938311e-04
 -1.57001439e+00 -2.48666845e-03]","[ 1.80549538e+00  2.76116543e-02 -4.90873866e-02 -1.44194201e-01
  2.91456357e-02  0.00000000e+00  6.13592332e-03  1.53398083e-03
  3.68155390e-02  0.00000000e+00  6.13592332e-03  0.00000000e+00
  1.58153415e+00 -6.13592332e-03  4.32582587e-01 -3.40543747e-01]","[ 1.79167928  0.02940236 -0.06640229 -0.15756371  0.          0.
  0.          0.          0.          0.          0.          0.
  1.56947926 -0.0105026   0.41233339 -0.35814456]"
103,1708577563.9546185,"[ 1.48505112e-04 -1.75070635e-03 -5.13989653e-04 -9.85938311e-04
 -1.57001439e+00 -2.48666845e-03]","[ 1.80549538e+00  2.60776728e-02 -4.90873866e-02 -1.44194201e-01
  2.91456357e-02  0.00000000e+00  6.13592332e-03  1.53398083e-03
  3.68155390e-02  0.00000000e+00  6.13592332e-03  0.00000000e+00
  1.58153415e+00 -6.13592332e-03  4.32582587e-01 -3.40543747e-01]","[ 1.79167928  0.02940236 -0.06640229 -0.15756371  0.          0.
  0.          0.          0.          0.          0.          0.
  1.56947926 -0.0105026   0.41233339 -0.35814456]"
104,1708577564.0730355,"[ 1.48505112e-04 -1.75382198e-03 -5.13374071e-04 -9.86798509e-04
 -1.57001439e+00 -2.48666845e-03]","[ 1.80549538e+00  2.60776728e-02 -4.90873866e-02 -1.44194201e-01
  2.91456357e-02  0.00000000e+00  6.13592332e-03  1.53398083e-03
  3.68155390e-02  0.00000000e+00  6.13592332e-03  0.00000000e+00
  1.58153415e+00 -6.13592332e-03  4.32582587e-01 -3.40543747e-01]","[ 1.79167928  0.02940236 -0.06640229 -0.15756371  0.          0.
  0.          0.          0.          0.          0.          0.
  1.56947926 -0.0105026   0.41233339 -0.35814456]"
105,1708577564.2019506,"[ 1.48505112e-04 -1.75797615e-03 -5.13374071e-04 -9.87658707e-04
 -1.57001364e+00 -2.48665337e-03]","[ 1.80549538e+00  2.45436933e-02 -4.90873866e-02 -1.44194201e-01
  2.91456357e-02  0.00000000e+00  6.13592332e-03  1.53398083e-03
  3.68155390e-02  0.00000000e+00  6.13592332e-03  0.00000000e+00
  1.58153415e+00 -6.13592332e-03  4.32582587e-01 -3.40543747e-01]","[ 1.79167928  0.02940236 -0.06640229 -0.15756371  0.          0.
  0.          0.          0.          0.          0.          0.
  1.56947926 -0.0105026   0.41233339 -0.35814456]"
106,1708577564.3340514,"[ 1.48505112e-04 -1.76057251e-03 -5.13374071e-04 -9.88518905e-04
 -1.57001364e+00 -2.48665337e-03]","[ 1.80549538e+00  2.45436933e-02 -4.90873866e-02 -1.44194201e-01
  2.91456357e-02  0.00000000e+00  7.66990380e-03  1.53398083e-03
  3.68155390e-02  0.00000000e+00  6.13592332e-03  0.00000000e+00
  1.58153415e+00 -6.13592332e-03  4.32582587e-01 -3.40543747e-01]","[ 1.79167928  0.02940236 -0.06640229 -0.15756371  0.          0.
  0.          0.          0.          0.          0.          0.
  1.56947926 -0.0105026   0.41233339 -0.35814456]"
107,1708577564.4582613,"[ 1.48505112e-04 -1.76316886e-03 -5.13374071e-04 -9.89379103e-04
 -1.57001364e+00 -2.48665337e-03]","[ 1.80549538e+00  2.45436933e-02 -4.90873866e-02 -1.44194201e-01
  2.91456357e-02  0.00000000e+00  6.13592332e-03  1.53398083e-03
  3.68155390e-02  0.00000000e+00  6.13592332e-03  0.00000000e+00
  1.58153415e+00 -6.13592332e-03  4.32582587e-01 -3.40543747e-01]","[ 1.79167928  0.02940236 -0.06640229 -0.15756371  0.          0.
  0.          0.          0.          0.          0.          0.
  1.56947926 -0.0105026   0.41233339 -0.35814456]"
108,1708577564.551522,"[ 1.48505112e-04 -1.76576522e-03 -5.13374071e-04 -9.89379103e-04
 -1.57001364e+00 -2.48665337e-03]","[ 1.80549538e+00  2.45436933e-02 -4.90873866e-02 -1.44194201e-01
  2.91456357e-02  0.00000000e+00  6.13592332e-03  1.53398083e-03
  3.68155390e-02  0.00000000e+00  6.13592332e-03  0.00000000e+00
  1.58153415e+00 -6.13592332e-03  4.32582587e-01 -3.40543747e-01]","[ 1.79167928  0.02940236 -0.06640229 -0.15756371  0.          0.
  0.          0.          0.          0.          0.          0.
  1.56947926 -0.0105026   0.41233339 -0.35814456]"
109,1708577564.6748154,"[ 1.48505112e-04 -1.76888085e-03 -5.13374071e-04 -9.90239301e-04
 -1.57001364e+00 -2.48665337e-03]","[ 1.80549538e+00  2.45436933e-02 -4.90873866e-02 -1.44194201e-01
  2.91456357e-02  0.00000000e+00  6.13592332e-03  1.53398083e-03
  3.68155390e-02  0.00000000e+00  6.13592332e-03  0.00000000e+00
  1.58153415e+00 -6.13592332e-03  4.32582587e-01 -3.40543747e-01]","[ 1.79167928  0.02940236 -0.06640229 -0.15756371  0.          0.
  0.          0.          0.          0.          0.          0.
  1.56947926 -0.0105026   0.41233339 -0.35814456]"
110,1708577564.792529,"[ 1.49053409e-04 -1.77251575e-03 -5.12758489e-04 -9.91959697e-04
 -1.57001364e+00 -2.48665337e-03]","[ 1.80549538e+00  2.45436933e-02 -4.90873866e-02 -1.44194201e-01
  2.91456357e-02  0.00000000e+00  6.13592332e-03  1.53398083e-03
  3.68155390e-02  0.00000000e+00  6.13592332e-03  0.00000000e+00
  1.58153415e+00 -6.13592332e-03  4.32582587e-01 -3.40543747e-01]","[ 1.79167928  0.02940236 -0.06640229 -0.15756371  0.          0.
  0.          0.          0.          0.          0.          0.
  1.56947926 -0.0105026   0.41233339 -0.35814456]"
111,1708577564.9443784,"[ 1.49053409e-04 -1.77563138e-03 -5.13374071e-04 -9.92819895e-04
 -1.57001364e+00 -2.48665337e-03]","[ 1.80549538e+00  2.30097119e-02 -4.90873866e-02 -1.44194201e-01
  2.91456357e-02  0.00000000e+00  6.13592332e-03  1.53398083e-03
  3.68155390e-02  0.00000000e+00  6.13592332e-03  0.00000000e+00
  1.58153415e+00 -6.13592332e-03  4.32582587e-01 -3.40543747e-01]","[ 1.79167928  0.02940236 -0.06640229 -0.15756371  0.          0.
  0.          0.          0.          0.          0.          0.
  1.56947926 -0.0105026   0.41233339 -0.35814456]"
112,1708577565.0866256,"[ 1.49053409e-04 -1.77926628e-03 -5.12758489e-04 -9.92819895e-04
 -1.57001364e+00 -2.48665337e-03]","[ 1.80549538e+00  2.30097119e-02 -4.90873866e-02 -1.44194201e-01
  2.91456357e-02  0.00000000e+00  6.13592332e-03  1.53398083e-03
  3.68155390e-02  0.00000000e+00  6.13592332e-03  0.00000000e+00
  1.58153415e+00 -6.13592332e-03  4.32582587e-01 -3.40543747e-01]","[ 1.79167928  0.02940236 -0.06640229 -0.15756371  0.          0.
  0.          0.          0.          0.          0.          0.
  1.56947926 -0.0105026   0.41233339 -0.35814456]"
113,1708577565.1921782,"[ 1.49053409e-04 -1.78290118e-03 -5.12758489e-04 -9.93680093e-04
 -1.57001364e+00 -2.48665337e-03]","[ 1.80549538e+00  2.30097119e-02 -4.90873866e-02 -1.44194201e-01
  2.91456357e-02  0.00000000e+00  6.13592332e-03  1.53398083e-03
  3.68155390e-02  0.00000000e+00  6.13592332e-03  0.00000000e+00
  1.58153415e+00 -6.13592332e-03  4.32582587e-01 -3.40543747e-01]","[ 1.79167928  0.02940236 -0.06640229 -0.15756371  0.          0.
  0.          0.          0.          0.          0.          0.
  1.56947926 -0.0105026   0.41233339 -0.35814456]"
114,1708577565.3168628,"[ 1.49601706e-04 -1.78705535e-03 -5.12758489e-04 -9.95400489e-04
 -1.57001364e+00 -2.48665337e-03]","[ 1.80549538e+00  2.30097119e-02 -4.90873866e-02 -1.44194201e-01
  2.91456357e-02  0.00000000e+00  6.13592332e-03  1.53398083e-03
  3.68155390e-02  0.00000000e+00  6.13592332e-03  0.00000000e+00
  1.58153415e+00 -6.13592332e-03  4.32582587e-01 -3.40543747e-01]","[ 1.79167928  0.02940236 -0.06640229 -0.15756371  0.          0.
  0.          0.          0.          0.          0.          0.
  1.56947926 -0.0105026   0.41233339 -0.35814456]"
115,1708577565.4600427,"[ 1.49053409e-04 -1.79120953e-03 -5.12142906e-04 -9.96260687e-04
 -1.57001364e+00 -2.48665337e-03]","[ 1.80549538e+00  2.30097119e-02 -4.90873866e-02 -1.44194201e-01
  2.91456357e-02  0.00000000e+00  6.13592332e-03  1.53398083e-03
  3.68155390e-02  0.00000000e+00  6.13592332e-03  0.00000000e+00
  1.58153415e+00 -6.13592332e-03  4.32582587e-01 -3.40543747e-01]","[ 1.79167928  0.02940236 -0.06640229 -0.15756371  0.          0.
  0.          0.          0.          0.          0.          0.
  1.56947926 -0.0105026   0.41233339 -0.35814456]"
116,1708577565.5856497,"[ 1.49053409e-04 -1.79380588e-03 -5.12142906e-04 -9.97120885e-04
 -1.57001364e+00 -2.48665337e-03]","[ 1.80702937e+00  2.60776728e-02 -4.90873866e-02 -1.44194201e-01
  2.91456357e-02  0.00000000e+00  6.13592332e-03  1.53398083e-03
  3.68155390e-02  0.00000000e+00  6.13592332e-03  0.00000000e+00
  1.58153415e+00 -6.13592332e-03  4.32582587e-01 -3.40543747e-01]","[ 1.79167928  0.02940236 -0.06640229 -0.15756371  0.          0.
  0.          0.          0.          0.          0.          0.
  1.56947926 -0.0105026   0.41233339 -0.35814456]"
117,1708577565.7054482,"[ 1.49601706e-04 -1.79640224e-03 -5.12142906e-04 -9.97981083e-04
 -1.57001364e+00 -2.48665337e-03]","[ 1.80702937e+00  2.76116543e-02 -4.90873866e-02 -1.44194201e-01
  2.91456357e-02  0.00000000e+00  6.13592332e-03  1.53398083e-03
  3.68155390e-02  0.00000000e+00  6.13592332e-03  0.00000000e+00
  1.58153415e+00 -6.13592332e-03  4.32582587e-01 -3.40543747e-01]","[ 1.79167928  0.02940236 -0.06640229 -0.15756371  0.          0.
  0.          0.          0.          0.          0.          0.
  1.56947926 -0.0105026   0.41233339 -0.35814456]"
118,1708577565.8214011,"[ 1.49601706e-04 -1.79951787e-03 -5.12142906e-04 -9.98841281e-04
 -1.57001364e+00 -2.48665337e-03]","[ 1.80702937e+00  2.60776728e-02 -4.75534052e-02 -1.44194201e-01
  2.91456357e-02  0.00000000e+00  6.13592332e-03  1.53398083e-03
  3.68155390e-02  0.00000000e+00  6.13592332e-03  0.00000000e+00
  1.58000016e+00 -6.13592332e-03  4.32582587e-01 -3.40543747e-01]","[ 1.79167928  0.02940236 -0.06640229 -0.15756371  0.          0.
  0.          0.          0.          0.          0.          0.
  1.56947926 -0.0105026   0.41233339 -0.35814456]"
119,1708577565.9334724,"[ 1.49601706e-04 -1.80159496e-03 -5.12142906e-04 -9.99701479e-04
 -1.57001364e+00 -2.48665337e-03]","[ 1.80702937e+00  2.76116543e-02 -4.75534052e-02 -1.44194201e-01
  2.91456357e-02  0.00000000e+00  6.13592332e-03  1.53398083e-03
  3.68155390e-02  0.00000000e+00  6.13592332e-03  0.00000000e+00
  1.58000016e+00 -6.13592332e-03  4.32582587e-01 -3.40543747e-01]","[ 1.79167928  0.02940236 -0.06640229 -0.15756371  0.          0.
  0.          0.          0.          0.          0.          0.
  1.56947926 -0.0105026   0.41233339 -0.35814456]"
120,1708577566.0449584,"[ 1.49601706e-04 -1.80419131e-03 -5.11527324e-04 -1.00056168e-03
 -1.57001364e+00 -2.48665337e-03]","[ 1.80856335e+00  2.91456357e-02 -4.75534052e-02 -1.44194201e-01
  2.91456357e-02  0.00000000e+00  6.13592332e-03  1.53398083e-03
  3.68155390e-02  0.00000000e+00  6.13592332e-03  0.00000000e+00
  1.58000016e+00 -6.13592332e-03  4.32582587e-01 -3.40543747e-01]","[ 1.79167928  0.02940236 -0.06640229 -0.15756371  0.          0.
  0.          0.          0.          0.          0.          0.
  1.56947926 -0.0105026   0.41233339 -0.35814456]"
121,1708577566.1716073,"[ 1.50150003e-04 -1.80730694e-03 -5.11527324e-04 -1.00142188e-03
 -1.57001364e+00 -2.48665337e-03]","[ 1.80856335e+00  2.91456357e-02 -4.75534052e-02 -1.44194201e-01
  2.91456357e-02  0.00000000e+00  6.13592332e-03  1.53398083e-03
  3.68155390e-02  0.00000000e+00  6.13592332e-03  0.00000000e+00
  1.58000016e+00 -6.13592332e-03  4.32582587e-01 -3.40543747e-01]","[ 1.79167928  0.02940236 -0.06640229 -0.15756371  0.          0.
  0.          0.          0.          0.          0.          0.
  1.56947926 -0.0105026   0.41233339 -0.35814456]"
122,1708577566.3216376,"[ 1.50150003e-04 -1.81042257e-03 -5.10911742e-04 -1.00314227e-03
 -1.57001439e+00 -2.48666845e-03]","[ 1.80856335e+00  2.91456357e-02 -4.75534052e-02 -1.44194201e-01
  2.91456357e-02  0.00000000e+00  6.13592332e-03  1.53398083e-03
  3.68155390e-02  0.00000000e+00  6.13592332e-03  0.00000000e+00
  1.58000016e+00 -6.13592332e-03  4.32582587e-01 -3.40543747e-01]","[ 1.79167928  0.02940236 -0.06640229 -0.15756371  0.          0.
  0.          0.          0.          0.          0.          0.
  1.56947926 -0.0105026   0.41233339 -0.35814456]"
123,1708577566.4345746,"[ 1.50150003e-04 -1.81301893e-03 -5.10911742e-04 -1.00400247e-03
 -1.57001439e+00 -2.48666845e-03]","[ 1.80856335e+00  3.06796152e-02 -4.75534052e-02 -1.44194201e-01
  2.91456357e-02  0.00000000e+00  6.13592332e-03  1.53398083e-03
  3.68155390e-02  0.00000000e+00  6.13592332e-03  0.00000000e+00
  1.57846618e+00 -6.13592332e-03  4.32582587e-01 -3.40543747e-01]","[ 1.79167928  0.02940236 -0.06640229 -0.15756371  0.          0.
  0.          0.          0.          0.          0.          0.
  1.56947926 -0.0105026   0.41233339 -0.35814456]"
124,1708577566.5613775,"[ 1.50150003e-04 -1.81561529e-03 -5.11527324e-04 -1.00400247e-03
 -1.57001364e+00 -2.48665337e-03]","[ 1.80856335e+00  3.06796152e-02 -4.75534052e-02 -1.44194201e-01
  2.91456357e-02  0.00000000e+00  6.13592332e-03  1.53398083e-03
  3.68155390e-02  0.00000000e+00  6.13592332e-03  0.00000000e+00
  1.57846618e+00 -6.13592332e-03  4.32582587e-01 -3.40543747e-01]","[ 1.79167928  0.02940236 -0.06640229 -0.15756371  0.          0.
  0.          0.          0.          0.          0.          0.
  1.56947926 -0.0105026   0.41233339 -0.35814456]"
125,1708577566.6760676,"[ 1.50150003e-04 -1.81873092e-03 -5.10911742e-04 -1.00572287e-03
 -1.57001364e+00 -2.48665337e-03]","[ 1.80856335e+00  3.22135948e-02 -4.75534052e-02 -1.44194201e-01
  2.91456357e-02  0.00000000e+00  6.13592332e-03  1.53398083e-03
  3.68155390e-02  0.00000000e+00  6.13592332e-03  0.00000000e+00
  1.57846618e+00 -6.13592332e-03  4.32582587e-01 -3.40543747e-01]","[ 1.79167928  0.02940236 -0.06640229 -0.15756371  0.          0.
  0.          0.          0.          0.          0.          0.
  1.56947926 -0.0105026   0.41233339 -0.35814456]"
126,1708577566.802458,"[ 1.50150003e-04 -1.82028873e-03 -5.10911742e-04 -1.00572287e-03
 -1.57001364e+00 -2.48665337e-03]","[ 1.80856335e+00  3.22135948e-02 -4.75534052e-02 -1.42660215e-01
  2.91456357e-02  0.00000000e+00  6.13592332e-03  1.53398083e-03
  3.68155390e-02  0.00000000e+00  6.13592332e-03  0.00000000e+00
  1.57846618e+00 -6.13592332e-03  4.32582587e-01 -3.40543747e-01]","[ 1.79167928  0.02940236 -0.06640229 -0.15756371  0.          0.
  0.          0.          0.          0.          0.          0.
  1.56947926 -0.0105026   0.41233339 -0.35814456]"
127,1708577566.9231234,"[ 1.50150003e-04 -1.82288509e-03 -5.10911742e-04 -1.00744326e-03
 -1.57001364e+00 -2.48665337e-03]","[ 1.80856335e+00  3.22135948e-02 -4.75534052e-02 -1.42660215e-01
  2.91456357e-02  0.00000000e+00  6.13592332e-03  1.53398083e-03
  3.68155390e-02  0.00000000e+00  6.13592332e-03  0.00000000e+00
  1.57846618e+00 -6.13592332e-03  4.32582587e-01 -3.40543747e-01]","[ 1.79167928  0.02940236 -0.06640229 -0.15756371  0.          0.
  0.          0.          0.          0.          0.          0.
  1.56947926 -0.0105026   0.41233339 -0.35814456]"
128,1708577567.0439742,"[ 1.50150003e-04 -1.82548145e-03 -5.10911742e-04 -1.00830346e-03
 -1.57001364e+00 -2.48817180e-03]","[ 1.80856335e+00  3.22135948e-02 -4.75534052e-02 -1.42660215e-01
  2.91456357e-02  0.00000000e+00  6.13592332e-03  1.53398083e-03
  3.68155390e-02  0.00000000e+00  6.13592332e-03  0.00000000e+00
  1.57846618e+00 -6.13592332e-03  4.32582587e-01 -3.40543747e-01]","[ 1.79167928  0.02940236 -0.06640229 -0.15756371  0.          0.
  0.          0.          0.          0.          0.          0.
  1.56947926 -0.0105026   0.41233339 -0.35814456]"
129,1708577567.1455426,"[ 1.50150003e-04 -1.82859707e-03 -5.10911742e-04 -1.00916366e-03
 -1.57001364e+00 -2.48817180e-03]","[ 1.80856335e+00  3.22135948e-02 -4.75534052e-02 -1.42660215e-01
  2.91456357e-02  0.00000000e+00  6.13592332e-03  1.53398083e-03
  3.68155390e-02  0.00000000e+00  6.13592332e-03  0.00000000e+00
  1.57846618e+00 -6.13592332e-03  4.32582587e-01 -3.40543747e-01]","[ 1.79167928  0.02940236 -0.06640229 -0.15756371  0.          0.
  0.          0.          0.          0.          0.          0.
  1.56947926 -0.0105026   0.41233339 -0.35814456]"
130,1708577567.279211,"[ 1.50150003e-04 -1.83119343e-03 -5.10296159e-04 -1.01088405e-03
 -1.57001364e+00 -2.48817180e-03]","[ 1.80856335e+00  3.37475762e-02 -4.75534052e-02 -1.42660215e-01
  2.91456357e-02  0.00000000e+00  6.13592332e-03  1.53398083e-03
  3.68155390e-02  0.00000000e+00  6.13592332e-03  0.00000000e+00
  1.57846618e+00 -6.13592332e-03  4.32582587e-01 -3.40543747e-01]","[ 1.79167928  0.02940236 -0.06640229 -0.15756371  0.          0.
  0.          0.          0.          0.          0.          0.
  1.56947926 -0.0105026   0.41233339 -0.35814456]"
131,1708577567.3858147,"[ 1.50150003e-04 -1.83534760e-03 -5.10296159e-04 -1.01174425e-03
 -1.57001289e+00 -2.48815672e-03]","[ 1.80702937e+00  3.22135948e-02 -4.75534052e-02 -1.42660215e-01
  2.91456357e-02  0.00000000e+00  6.13592332e-03  1.53398083e-03
  3.68155390e-02  0.00000000e+00  6.13592332e-03  0.00000000e+00
  1.57846618e+00 -6.13592332e-03  4.32582587e-01 -3.40543747e-01]","[ 1.79167928  0.02940236 -0.06640229 -0.15756371  0.          0.
  0.          0.          0.          0.          0.          0.
  1.56947926 -0.0105026   0.41233339 -0.35814456]"
132,1708577567.5252314,"[ 1.50698300e-04 -1.83846323e-03 -5.10296159e-04 -1.01260445e-03
 -1.57001289e+00 -2.48815672e-03]","[ 1.80702937e+00  3.37475762e-02 -4.75534052e-02 -1.42660215e-01
  2.91456357e-02  0.00000000e+00  6.13592332e-03  1.53398083e-03
  3.68155390e-02  0.00000000e+00  6.13592332e-03  0.00000000e+00
  1.57846618e+00 -6.13592332e-03  4.32582587e-01 -3.40543747e-01]","[ 1.79167928  0.02940236 -0.06640229 -0.15756371  0.          0.
  0.          0.          0.          0.          0.          0.
  1.56947926 -0.0105026   0.41233339 -0.35814456]"
133,1708577567.6584182,"[ 1.50150003e-04 -1.84105959e-03 -5.10296159e-04 -1.01432485e-03
 -1.57001289e+00 -2.48815672e-03]","[ 1.80702937e+00  3.37475762e-02 -4.75534052e-02 -1.42660215e-01
  2.91456357e-02  0.00000000e+00  6.13592332e-03  1.53398083e-03
  3.68155390e-02  0.00000000e+00  6.13592332e-03  0.00000000e+00
  1.57693219e+00 -6.13592332e-03  4.32582587e-01 -3.40543747e-01]","[ 1.79167928  0.02940236 -0.06640229 -0.15756371  0.          0.
  0.          0.          0.          0.          0.          0.
  1.56947926 -0.0105026   0.41233339 -0.35814456]"
134,1708577567.7833042,"[ 1.50150003e-04 -1.84417522e-03 -5.09680577e-04 -1.01518504e-03
 -1.57001289e+00 -2.48815672e-03]","[ 1.80702937e+00  3.37475762e-02 -4.75534052e-02 -1.44194201e-01
  2.91456357e-02  0.00000000e+00  6.13592332e-03  1.53398083e-03
  3.68155390e-02  0.00000000e+00  6.13592332e-03  0.00000000e+00
  1.57693219e+00 -6.13592332e-03  4.32582587e-01 -3.40543747e-01]","[ 1.79167928  0.02940236 -0.06640229 -0.15756371  0.          0.
  0.          0.          0.          0.          0.          0.
  1.56947926 -0.0105026   0.41233339 -0.35814456]"
135,1708577567.9096255,"[ 1.50150003e-04 -1.84677158e-03 -5.09680577e-04 -1.01604524e-03
 -1.57001289e+00 -2.48815672e-03]","[ 1.80702937e+00  3.37475762e-02 -4.75534052e-02 -1.42660215e-01
  2.91456357e-02  0.00000000e+00  6.13592332e-03  1.53398083e-03
  3.68155390e-02  0.00000000e+00  7.66990380e-03  0.00000000e+00
  1.57693219e+00 -6.13592332e-03  4.32582587e-01 -3.40543747e-01]","[ 1.79167928  0.02940236 -0.06640229 -0.15756371  0.          0.
  0.          0.          0.          0.          0.          0.
  1.56947926 -0.0105026   0.41233339 -0.35814456]"
136,1708577568.0578237,"[ 1.50698300e-04 -1.84936794e-03 -5.09064995e-04 -1.01776564e-03
 -1.57001289e+00 -2.48815672e-03]","[ 1.80702937e+00  3.52815576e-02 -4.75534052e-02 -1.42660215e-01
  2.91456357e-02  0.00000000e+00  6.13592332e-03  1.53398083e-03
  3.68155390e-02  0.00000000e+00  6.13592332e-03  0.00000000e+00
  1.57693219e+00 -6.13592332e-03  4.32582587e-01 -3.40543747e-01]","[ 1.79167928  0.02940236 -0.06640229 -0.15756371  0.          0.
  0.          0.          0.          0.          0.          0.
  1.56947926 -0.0105026   0.41233339 -0.35814456]"
137,1708577568.1861587,"[ 1.50698300e-04 -1.85196429e-03 -5.09064995e-04 -1.01862584e-03
 -1.57001213e+00 -2.48814164e-03]","[ 1.80702937e+00  3.37475762e-02 -4.75534052e-02 -1.42660215e-01
  2.91456357e-02  0.00000000e+00  6.13592332e-03  1.53398083e-03
  3.68155390e-02  0.00000000e+00  7.66990380e-03  0.00000000e+00
  1.57693219e+00 -6.13592332e-03  4.32582587e-01 -3.40543747e-01]","[ 1.79167928  0.02940236 -0.06640229 -0.15756371  0.          0.
  0.          0.          0.          0.          0.          0.
  1.56947926 -0.0105026   0.41233339 -0.35814456]"
138,1708577568.4132829,"[ 1.50698300e-04 -1.85456065e-03 -5.08449412e-04 -1.02120643e-03
 -1.57001213e+00 -2.48814164e-03]","[ 1.80702937e+00  3.37475762e-02 -4.75534052e-02 -1.42660215e-01
  2.91456357e-02  0.00000000e+00  6.13592332e-03  1.53398083e-03
  3.68155390e-02  0.00000000e+00  6.13592332e-03  0.00000000e+00
  1.57693219e+00 -6.13592332e-03  4.32582587e-01 -3.40543747e-01]","[ 1.79167928  0.02940236 -0.06640229 -0.15756371  0.          0.
  0.          0.          0.          0.          0.          0.
  1.56947926 -0.0105026   0.41233339 -0.35814456]"
139,1708577568.516511,"[ 1.50698300e-04 -1.85767628e-03 -5.08449412e-04 -1.02292682e-03
 -1.57001213e+00 -2.48814164e-03]","[ 1.80702937e+00  3.52815576e-02 -4.75534052e-02 -1.42660215e-01
  2.91456357e-02  0.00000000e+00  6.13592332e-03  1.53398083e-03
  3.68155390e-02  0.00000000e+00  6.13592332e-03  0.00000000e+00
  1.57693219e+00 -6.13592332e-03  4.32582587e-01 -3.40543747e-01]","[ 1.79167928  0.02940236 -0.06640229 -0.15756371  0.          0.
  0.          0.          0.          0.          0.          0.
  1.56947926 -0.0105026   0.41233339 -0.35814456]"
140,1708577568.6605089,"[ 1.50698300e-04 -1.85871482e-03 -5.08449412e-04 -1.02378702e-03
 -1.57001213e+00 -2.48814164e-03]","[ 1.80702937e+00  3.37475762e-02 -4.75534052e-02 -1.42660215e-01
  2.91456357e-02  0.00000000e+00  6.13592332e-03  1.53398083e-03
  3.68155390e-02  0.00000000e+00  7.66990380e-03  0.00000000e+00
  1.57693219e+00 -6.13592332e-03  4.32582587e-01 -3.40543747e-01]","[ 1.79167928  0.02940236 -0.06640229 -0.15756371  0.          0.
  0.          0.          0.          0.          0.          0.
  1.56947926 -0.0105026   0.41233339 -0.35814456]"
141,1708577568.768518,"[ 1.50698300e-04 -1.86131118e-03 -5.08449412e-04 -1.02550742e-03
 -1.57001213e+00 -2.48814164e-03]","[ 1.80702937e+00  3.37475762e-02 -4.75534052e-02 -1.42660215e-01
  2.91456357e-02  0.00000000e+00  6.13592332e-03  1.53398083e-03
  3.68155390e-02  0.00000000e+00  6.13592332e-03  0.00000000e+00
  1.57693219e+00 -6.13592332e-03  4.32582587e-01 -3.40543747e-01]","[ 1.79167928  0.02940236 -0.06640229 -0.15756371  0.          0.
  0.          0.          0.          0.          0.          0.
  1.56947926 -0.0105026   0.41233339 -0.35814456]"
142,1708577568.8788881,"[ 1.50698300e-04 -1.86338827e-03 -5.08449412e-04 -1.02636762e-03
 -1.57001138e+00 -2.48964500e-03]","[ 1.80702937e+00  3.37475762e-02 -4.75534052e-02 -1.44194201e-01
  2.91456357e-02  0.00000000e+00  6.13592332e-03  1.53398083e-03
  3.68155390e-02  0.00000000e+00  6.13592332e-03  0.00000000e+00
  1.57693219e+00 -6.13592332e-03  4.32582587e-01 -3.40543747e-01]","[ 1.79167928  0.02940236 -0.06640229 -0.15756371  0.          0.
  0.          0.          0.          0.          0.          0.
  1.56947926 -0.0105026   0.41233339 -0.35814456]"
143,1708577569.001856,"[ 1.51246597e-04 -1.86442681e-03 -5.08449412e-04 -1.02722781e-03
 -1.57001138e+00 -2.48812657e-03]","[ 1.80702937e+00  3.37475762e-02 -4.75534052e-02 -1.42660215e-01
  2.91456357e-02  0.00000000e+00  6.13592332e-03  1.53398083e-03
  3.68155390e-02  0.00000000e+00  6.13592332e-03  0.00000000e+00
  1.57693219e+00 -4.60194238e-03  4.32582587e-01 -3.40543747e-01]","[ 1.79167928  0.02940236 -0.06640229 -0.15756371  0.          0.
  0.          0.          0.          0.          0.          0.
  1.56947926 -0.0105026   0.41233339 -0.35814456]"
144,1708577569.096882,"[ 1.50698300e-04 -1.86650390e-03 -5.07833830e-04 -1.02894821e-03
 -1.57001138e+00 -2.48964500e-03]","[ 1.80702937e+00  3.37475762e-02 -4.75534052e-02 -1.42660215e-01
  2.91456357e-02  0.00000000e+00  6.13592332e-03  1.53398083e-03
  3.68155390e-02  0.00000000e+00  7.66990380e-03  0.00000000e+00
  1.57693219e+00 -6.13592332e-03  4.32582587e-01 -3.40543747e-01]","[ 1.79167928  0.02940236 -0.06640229 -0.15756371  0.          0.
  0.          0.          0.          0.          0.          0.
  1.56947926 -0.0105026   0.41233339 -0.35814456]"
145,1708577569.2297251,"[ 1.51246597e-04 -1.86858098e-03 -5.07833830e-04 -1.02980841e-03
 -1.57001138e+00 -2.48964500e-03]","[ 1.80702937e+00  3.37475762e-02 -4.75534052e-02 -1.42660215e-01
  2.91456357e-02  0.00000000e+00  6.13592332e-03  1.53398083e-03
  3.68155390e-02  0.00000000e+00  6.13592332e-03  0.00000000e+00
  1.57693219e+00 -6.13592332e-03  4.32582587e-01 -3.40543747e-01]","[ 1.79167928  0.02940236 -0.06640229 -0.15756371  0.          0.
  0.          0.          0.          0.          0.          0.
  1.56947926 -0.0105026   0.41233339 -0.35814456]"
146,1708577569.3320546,"[ 1.50698300e-04 -1.87117734e-03 -5.07833830e-04 -1.03066861e-03
 -1.57001138e+00 -2.48964500e-03]","[ 1.80856335e+00  3.37475762e-02 -4.75534052e-02 -1.42660215e-01
  2.91456357e-02  0.00000000e+00  6.13592332e-03  1.53398083e-03
  3.68155390e-02  0.00000000e+00  6.13592332e-03  0.00000000e+00
  1.57693219e+00 -6.13592332e-03  4.32582587e-01 -3.40543747e-01]","[ 1.79167928  0.02940236 -0.06640229 -0.15756371  0.          0.
  0.          0.          0.          0.          0.          0.
  1.56947926 -0.0105026   0.41233339 -0.35814456]"
147,1708577569.4566946,"[ 1.50698300e-04 -1.87377370e-03 -5.07833830e-04 -1.03238900e-03
 -1.57001213e+00 -2.48966008e-03]","[ 1.80856335e+00  3.52815576e-02 -4.75534052e-02 -1.42660215e-01
  2.91456357e-02  0.00000000e+00  6.13592332e-03  1.53398083e-03
  3.68155390e-02  0.00000000e+00  6.13592332e-03  0.00000000e+00
  1.57846618e+00 -6.13592332e-03  4.32582587e-01 -3.40543747e-01]","[ 1.79167928  0.02940236 -0.06640229 -0.15756371  0.          0.
  0.          0.          0.          0.          0.          0.
  1.56947926 -0.0105026   0.41233339 -0.35814456]"
148,1708577569.604927,"[ 1.50698300e-04 -1.87688933e-03 -5.07833830e-04 -1.03324920e-03
 -1.57001138e+00 -2.48964500e-03]","[ 1.80856335e+00  3.37475762e-02 -4.75534052e-02 -1.42660215e-01
  2.91456357e-02  0.00000000e+00  6.13592332e-03  1.53398083e-03
  3.68155390e-02  0.00000000e+00  6.13592332e-03  0.00000000e+00
  1.57846618e+00 -6.13592332e-03  4.32582587e-01 -3.40543747e-01]","[ 1.79167928  0.02940236 -0.06640229 -0.15756371  0.          0.
  0.          0.          0.          0.          0.          0.
  1.56947926 -0.0105026   0.41233339 -0.35814456]"
149,1708577569.748807,"[ 1.51246597e-04 -1.87948568e-03 -5.07833830e-04 -1.03496960e-03
 -1.57001213e+00 -2.48966008e-03]","[ 1.80856335e+00  3.52815576e-02 -4.75534052e-02 -1.42660215e-01
  2.91456357e-02  0.00000000e+00  6.13592332e-03  1.53398083e-03
  3.68155390e-02  0.00000000e+00  6.13592332e-03  0.00000000e+00
  1.57846618e+00 -6.13592332e-03  4.32582587e-01 -3.40543747e-01]","[ 1.79167928  0.02940236 -0.06640229 -0.15756371  0.          0.
  0.          0.          0.          0.          0.          0.
  1.56947926 -0.0105026   0.41233339 -0.35814456]"
150,1708577569.8806555,"[ 1.51246597e-04 -1.88260131e-03 -5.07833830e-04 -1.03582979e-03
 -1.57001213e+00 -2.48966008e-03]","[ 1.80856335e+00  3.52815576e-02 -4.75534052e-02 -1.42660215e-01
  2.91456357e-02  0.00000000e+00  6.13592332e-03  1.53398083e-03
  3.68155390e-02  0.00000000e+00  6.13592332e-03  0.00000000e+00
  1.57846618e+00 -6.13592332e-03  4.34116572e-01 -3.40543747e-01]","[ 1.79167928  0.02940236 -0.06640229 -0.15756371  0.          0.
  0.          0.          0.          0.          0.          0.
  1.56947926 -0.0105026   0.41233339 -0.35814456]"
151,1708577570.1124818,"[ 1.51246597e-04 -1.88779403e-03 -5.07218248e-04 -1.03755019e-03
 -1.57001213e+00 -2.48966008e-03]","[ 1.80856335e+00  3.37475762e-02 -4.75534052e-02 -1.42660215e-01
  2.91456357e-02  0.00000000e+00  6.13592332e-03  1.53398083e-03
  3.68155390e-02  0.00000000e+00  6.13592332e-03  0.00000000e+00
  1.57846618e+00 -6.13592332e-03  4.32582587e-01 -3.40543747e-01]","[ 1.79167928  0.02940236 -0.06640229 -0.15756371  0.          0.
  0.          0.          0.          0.          0.          0.
  1.56947926 -0.0105026   0.41233339 -0.35814456]"
152,1708577570.2581196,"[ 1.51246597e-04 -1.89142893e-03 -5.07218248e-04 -1.03927059e-03
 -1.57001213e+00 -2.48966008e-03]","[ 1.80856335e+00  3.37475762e-02 -4.75534052e-02 -1.42660215e-01
  2.91456357e-02  0.00000000e+00  6.13592332e-03  1.53398083e-03
  3.68155390e-02  0.00000000e+00  6.13592332e-03  0.00000000e+00
  1.57846618e+00 -6.13592332e-03  4.32582587e-01 -3.40543747e-01]","[ 1.79167928  0.02940236 -0.06640229 -0.15756371  0.          0.
  0.          0.          0.          0.          0.          0.
  1.56947926 -0.0105026   0.41233339 -0.35814456]"
153,1708577570.3947377,"[ 1.51246597e-04 -1.89350601e-03 -5.07833830e-04 -1.04013078e-03
 -1.57001213e+00 -2.48966008e-03]","[ 1.80856335e+00  3.37475762e-02 -4.75534052e-02 -1.42660215e-01
  2.91456357e-02  0.00000000e+00  7.66990380e-03  1.53398083e-03
  3.68155390e-02  0.00000000e+00  6.13592332e-03  0.00000000e+00
  1.57846618e+00 -6.13592332e-03  4.32582587e-01 -3.40543747e-01]","[ 1.79167928  0.02940236 -0.06640229 -0.15756371  0.          0.
  0.          0.          0.          0.          0.          0.
  1.56947926 -0.0105026   0.41233339 -0.35814456]"
154,1708577570.507124,"[ 1.51246597e-04 -1.89610237e-03 -5.07218248e-04 -1.04099098e-03
 -1.57001213e+00 -2.48966008e-03]","[ 1.80702937e+00  3.37475762e-02 -4.75534052e-02 -1.42660215e-01
  2.91456357e-02  0.00000000e+00  6.13592332e-03  1.53398083e-03
  3.68155390e-02  0.00000000e+00  6.13592332e-03  0.00000000e+00
  1.58000016e+00 -6.13592332e-03  4.32582587e-01 -3.40543747e-01]","[ 1.79167928  0.02940236 -0.06640229 -0.15756371  0.          0.
  0.          0.          0.          0.          0.          0.
  1.56947926 -0.0105026   0.41233339 -0.35814456]"
155,1708577570.6648238,"[ 1.51246597e-04 -1.89817946e-03 -5.07218248e-04 -1.04185118e-03
 -1.57001213e+00 -2.48966008e-03]","[ 1.80856335e+00  3.37475762e-02 -4.75534052e-02 -1.42660215e-01
  2.91456357e-02  0.00000000e+00  6.13592332e-03  1.53398083e-03
  3.68155390e-02  0.00000000e+00  6.13592332e-03  0.00000000e+00
  1.58000016e+00 -6.13592332e-03  4.32582587e-01 -3.40543747e-01]","[ 1.79167928  0.02940236 -0.06640229 -0.15756371  0.          0.
  0.          0.          0.          0.          0.          0.
  1.56947926 -0.0105026   0.41233339 -0.35814456]"
156,1708577570.7639692,"[ 1.51794893e-04 -1.90077581e-03 -5.07218248e-04 -1.04271138e-03
 -1.57001213e+00 -2.48966008e-03]","[ 1.80856335e+00  3.37475762e-02 -4.75534052e-02 -1.42660215e-01
  2.91456357e-02  0.00000000e+00  6.13592332e-03  1.53398083e-03
  3.68155390e-02  0.00000000e+00  6.13592332e-03  0.00000000e+00
  1.58000016e+00 -6.13592332e-03  4.32582587e-01 -3.40543747e-01]","[ 1.79167928  0.02940236 -0.06640229 -0.15756371  0.          0.
  0.          0.          0.          0.          0.          0.
  1.56947926 -0.0105026   0.41233339 -0.35814456]"
157,1708577570.883878,"[ 1.51794893e-04 -1.90285290e-03 -5.06602665e-04 -1.04357158e-03
 -1.57001213e+00 -2.48966008e-03]","[ 1.80702937e+00  3.37475762e-02 -4.75534052e-02 -1.42660215e-01
  2.91456357e-02  0.00000000e+00  6.13592332e-03  1.53398083e-03
  3.68155390e-02  0.00000000e+00  6.13592332e-03  0.00000000e+00
  1.58000016e+00 -6.13592332e-03  4.32582587e-01 -3.40543747e-01]","[ 1.79167928  0.02940236 -0.06640229 -0.15756371  0.          0.
  0.          0.          0.          0.          0.          0.
  1.56947926 -0.0105026   0.41233339 -0.35814456]"
158,1708577571.0114102,"[ 1.51794893e-04 -1.90596853e-03 -5.06602665e-04 -1.04443177e-03
 -1.57001213e+00 -2.48966008e-03]","[ 1.80856335e+00  3.37475762e-02 -4.75534052e-02 -1.42660215e-01
  2.91456357e-02  0.00000000e+00  6.13592332e-03  1.53398083e-03
  3.68155390e-02  0.00000000e+00  6.13592332e-03  0.00000000e+00
  1.58000016e+00 -6.13592332e-03  4.32582587e-01 -3.40543747e-01]","[ 1.79167928  0.02940236 -0.06640229 -0.15756371  0.          0.
  0.          0.          0.          0.          0.          0.
  1.56947926 -0.0105026   0.41233339 -0.35814456]"
159,1708577571.1538658,"[ 1.51794893e-04 -1.90804562e-03 -5.06602665e-04 -1.04529197e-03
 -1.57001213e+00 -2.48966008e-03]","[ 1.80702937e+00  3.37475762e-02 -4.75534052e-02 -1.42660215e-01
  2.91456357e-02  0.00000000e+00  6.13592332e-03  1.53398083e-03
  3.68155390e-02  0.00000000e+00  6.13592332e-03  0.00000000e+00
  1.58000016e+00 -6.13592332e-03  4.32582587e-01 -3.40543747e-01]","[ 1.79167928  0.02940236 -0.06640229 -0.15756371  0.          0.
  0.          0.          0.          0.          0.          0.
  1.56947926 -0.0105026   0.41233339 -0.35814456]"
160,1708577571.2944727,"[ 1.51794893e-04 -1.91064197e-03 -5.06602665e-04 -1.04615217e-03
 -1.57001213e+00 -2.48966008e-03]","[ 1.80702937e+00  3.37475762e-02 -4.75534052e-02 -1.42660215e-01
  2.91456357e-02  0.00000000e+00  6.13592332e-03  1.53398083e-03
  3.68155390e-02  0.00000000e+00  6.13592332e-03  0.00000000e+00
  1.58000016e+00 -6.13592332e-03  4.32582587e-01 -3.40543747e-01]","[ 1.79167928  0.02940236 -0.06640229 -0.15756371  0.          0.
  0.          0.          0.          0.          0.          0.
  1.56947926 -0.0105026   0.41233339 -0.35814456]"
161,1708577571.4029896,"[ 1.51794893e-04 -1.91219979e-03 -5.06602665e-04 -1.04701237e-03
 -1.57001138e+00 -2.48964500e-03]","[ 1.80702937e+00  3.37475762e-02 -4.75534052e-02 -1.42660215e-01
  2.91456357e-02  0.00000000e+00  6.13592332e-03  1.53398083e-03
  3.68155390e-02  0.00000000e+00  6.13592332e-03  0.00000000e+00
  1.58000016e+00 -6.13592332e-03  4.32582587e-01 -3.40543747e-01]","[ 1.79167928  0.02940236 -0.06640229 -0.15756371  0.          0.
  0.          0.          0.          0.          0.          0.
  1.56947926 -0.0105026   0.41233339 -0.35814456]"
162,1708577571.5052202,"[ 1.51794893e-04 -1.91479615e-03 -5.05987083e-04 -1.04787257e-03
 -1.57001213e+00 -2.48966008e-03]","[ 1.80702937e+00  3.37475762e-02 -4.75534052e-02 -1.42660215e-01
  2.91456357e-02  0.00000000e+00  6.13592332e-03  1.53398083e-03
  3.68155390e-02  0.00000000e+00  6.13592332e-03  0.00000000e+00
  1.58000016e+00 -6.13592332e-03  4.32582587e-01 -3.40543747e-01]","[ 1.79167928  0.02940236 -0.06640229 -0.15756371  0.          0.
  0.          0.          0.          0.          0.          0.
  1.56947926 -0.0105026   0.41233339 -0.35814456]"
163,1708577571.6068773,"[ 1.52343190e-04 -1.91739250e-03 -5.05987083e-04 -1.04873276e-03
 -1.57001213e+00 -2.48966008e-03]","[ 1.80856335e+00  3.37475762e-02 -4.75534052e-02 -1.42660215e-01
  2.91456357e-02  0.00000000e+00  6.13592332e-03  1.53398083e-03
  3.68155390e-02  0.00000000e+00  6.13592332e-03  0.00000000e+00
  1.58000016e+00 -6.13592332e-03  4.32582587e-01 -3.40543747e-01]","[ 1.79167928  0.02940236 -0.06640229 -0.15756371  0.          0.
  0.          0.          0.          0.          0.          0.
  1.56947926 -0.0105026   0.41233339 -0.35814456]"
164,1708577571.7351959,"[ 1.52343190e-04 -1.91895032e-03 -5.06602665e-04 -1.04959296e-03
 -1.57001213e+00 -2.48966008e-03]","[ 1.80702937e+00  3.37475762e-02 -4.75534052e-02 -1.42660215e-01
  2.91456357e-02  0.00000000e+00  6.13592332e-03  1.53398083e-03
  3.68155390e-02  0.00000000e+00  6.13592332e-03  0.00000000e+00
  1.58000016e+00 -6.13592332e-03  4.32582587e-01 -3.40543747e-01]","[ 1.79167928  0.02940236 -0.06640229 -0.15756371  0.          0.
  0.          0.          0.          0.          0.          0.
  1.56947926 -0.0105026   0.41233339 -0.35814456]"
165,1708577571.8353388,"[ 1.52343190e-04 -1.92362376e-03 -5.05987083e-04 -1.05045316e-03
 -1.57001213e+00 -2.48966008e-03]","[ 1.80702937e+00  3.37475762e-02 -4.75534052e-02 -1.42660215e-01
  2.91456357e-02  0.00000000e+00  6.13592332e-03  1.53398083e-03
  3.68155390e-02  0.00000000e+00  7.66990380e-03  0.00000000e+00
  1.58000016e+00 -6.13592332e-03  4.32582587e-01 -3.40543747e-01]","[ 1.79167928  0.02940236 -0.06640229 -0.15756371  0.          0.
  0.          0.          0.          0.          0.          0.
  1.56947926 -0.0105026   0.41233339 -0.35814456]"
166,1708577571.9859393,"[ 1.52343190e-04 -1.92622012e-03 -5.05987083e-04 -1.05045316e-03
 -1.57001138e+00 -2.48964500e-03]","[ 1.80702937e+00  3.37475762e-02 -4.75534052e-02 -1.42660215e-01
  2.91456357e-02  0.00000000e+00  6.13592332e-03  1.53398083e-03
  3.68155390e-02  0.00000000e+00  6.13592332e-03  0.00000000e+00
  1.58000016e+00 -6.13592332e-03  4.32582587e-01 -3.40543747e-01]","[ 1.79167928  0.02940236 -0.06640229 -0.15756371  0.          0.
  0.          0.          0.          0.          0.          0.
  1.56947926 -0.0105026   0.41233339 -0.35814456]"
167,1708577572.0944426,"[ 1.52343190e-04 -1.93089356e-03 -5.05987083e-04 -1.05217356e-03
 -1.57001213e+00 -2.48966008e-03]","[ 1.80702937e+00  3.37475762e-02 -4.75534052e-02 -1.42660215e-01
  2.91456357e-02  0.00000000e+00  6.13592332e-03  1.53398083e-03
  3.68155390e-02  0.00000000e+00  6.13592332e-03  0.00000000e+00
  1.58000016e+00 -6.13592332e-03  4.32582587e-01 -3.40543747e-01]","[ 1.79167928  0.02940236 -0.06640229 -0.15756371  0.          0.
  0.          0.          0.          0.          0.          0.
  1.56947926 -0.0105026   0.41233339 -0.35814456]"
168,1708577572.2121143,"[ 1.52343190e-04 -1.93348992e-03 -5.05371501e-04 -1.05217356e-03
 -1.57001138e+00 -2.48964500e-03]","[ 1.80702937e+00  3.37475762e-02 -4.75534052e-02 -1.42660215e-01
  2.91456357e-02  0.00000000e+00  6.13592332e-03  1.53398083e-03
  3.68155390e-02  0.00000000e+00  6.13592332e-03  0.00000000e+00
  1.58000016e+00 -6.13592332e-03  4.32582587e-01 -3.40543747e-01]","[ 1.79167928  0.02940236 -0.06640229 -0.15756371  0.          0.
  0.          0.          0.          0.          0.          0.
  1.56947926 -0.0105026   0.41233339 -0.35814456]"
169,1708577572.334671,"[ 1.52343190e-04 -1.93920191e-03 -5.05371501e-04 -1.05389395e-03
 -1.57001213e+00 -2.48966008e-03]","[ 1.80702937e+00  3.37475762e-02 -4.75534052e-02 -1.42660215e-01
  2.91456357e-02  0.00000000e+00  6.13592332e-03  1.53398083e-03
  3.68155390e-02  0.00000000e+00  6.13592332e-03  0.00000000e+00
  1.58000016e+00 -6.13592332e-03  4.32582587e-01 -3.40543747e-01]","[ 1.79167928  0.02940236 -0.06640229 -0.15756371  0.          0.
  0.          0.          0.          0.          0.          0.
  1.56947926 -0.0105026   0.41233339 -0.35814456]"
170,1708577572.4844794,"[ 1.52343190e-04 -1.94439462e-03 -5.04755918e-04 -1.05475415e-03
 -1.57001213e+00 -2.48966008e-03]","[ 1.80702937e+00  3.37475762e-02 -4.75534052e-02 -1.42660215e-01
  2.91456357e-02  0.00000000e+00  6.13592332e-03  1.53398083e-03
  3.68155390e-02  0.00000000e+00  6.13592332e-03  0.00000000e+00
  1.58000016e+00 -6.13592332e-03  4.32582587e-01 -3.40543747e-01]","[ 1.79167928  0.02940236 -0.06640229 -0.15756371  0.          0.
  0.          0.          0.          0.          0.          0.
  1.56947926 -0.0105026   0.41233339 -0.35814456]"
171,1708577572.6354606,"[ 1.52343190e-04 -1.94854879e-03 -5.04755918e-04 -1.05561435e-03
 -1.57001138e+00 -2.49116344e-03]","[ 1.80702937e+00  3.37475762e-02 -4.75534052e-02 -1.44194201e-01
  2.91456357e-02  0.00000000e+00  6.13592332e-03  1.53398083e-03
  3.68155390e-02  0.00000000e+00  6.13592332e-03  0.00000000e+00
  1.58153415e+00 -6.13592332e-03  4.32582587e-01 -3.40543747e-01]","[ 1.79167928  0.02940236 -0.06640229 -0.15756371  0.          0.
  0.          0.          0.          0.          0.          0.
  1.56947926 -0.0105026   0.41233339 -0.35814456]"
172,1708577572.7890146,"[ 1.52343190e-04 -1.95218369e-03 -5.04755918e-04 -1.05647455e-03
 -1.57001138e+00 -2.49116344e-03]","[ 1.80702937e+00  3.37475762e-02 -4.75534052e-02 -1.44194201e-01
  2.91456357e-02  0.00000000e+00  6.13592332e-03  1.53398083e-03
  3.68155390e-02  0.00000000e+00  6.13592332e-03  0.00000000e+00
  1.58153415e+00 -6.13592332e-03  4.32582587e-01 -3.40543747e-01]","[ 1.79167928  0.02940236 -0.06640229 -0.15756371  0.          0.
  0.          0.          0.          0.          0.          0.
  1.56947926 -0.0105026   0.41233339 -0.35814456]"
173,1708577572.9220526,"[ 1.52343190e-04 -1.95529932e-03 -5.04755918e-04 -1.05647455e-03
 -1.57001138e+00 -2.49116344e-03]","[ 1.80702937e+00  3.37475762e-02 -4.90873866e-02 -1.42660215e-01
  2.91456357e-02  0.00000000e+00  6.13592332e-03  1.53398083e-03
  3.68155390e-02  0.00000000e+00  6.13592332e-03  0.00000000e+00
  1.58153415e+00 -6.13592332e-03  4.32582587e-01 -3.40543747e-01]","[ 1.79167928  0.02940236 -0.06640229 -0.15756371  0.          0.
  0.          0.          0.          0.          0.          0.
  1.56947926 -0.0105026   0.41233339 -0.35814456]"
174,1708577573.0370967,"[ 1.52343190e-04 -1.95893422e-03 -5.04140336e-04 -1.05819494e-03
 -1.57001138e+00 -2.49116344e-03]","[ 1.80702937e+00  3.37475762e-02 -4.75534052e-02 -1.44194201e-01
  2.91456357e-02  0.00000000e+00  6.13592332e-03  1.53398083e-03
  3.68155390e-02  0.00000000e+00  6.13592332e-03  0.00000000e+00
  1.58153415e+00 -6.13592332e-03  4.32582587e-01 -3.40543747e-01]","[ 1.79167928  0.02940236 -0.06640229 -0.15756371  0.          0.
  0.          0.          0.          0.          0.          0.
  1.56947926 -0.0105026   0.41233339 -0.35814456]"
175,1708577573.1865041,"[ 1.52343190e-04 -1.96256912e-03 -5.04140336e-04 -1.05819494e-03
 -1.57001138e+00 -2.49116344e-03]","[ 1.80702937e+00  3.37475762e-02 -4.90873866e-02 -1.44194201e-01
  2.91456357e-02  0.00000000e+00  6.13592332e-03  1.53398083e-03
  3.68155390e-02  0.00000000e+00  6.13592332e-03  0.00000000e+00
  1.58153415e+00 -6.13592332e-03  4.32582587e-01 -3.40543747e-01]","[ 1.79167928  0.02940236 -0.06640229 -0.15756371  0.          0.
